; generated by PrusaSlicer 2.7.4+win64 on 2024-07-11 at 22:13:41 UTC


;
;
; 

; external perimeters extrusion width = 0.45mm
; perimeters extrusion width = 0.45mm
; infill extrusion width = 0.45mm
; solid infill extrusion width = 0.45mm
; top infill extrusion width = 0.40mm
; first layer extrusion width = 0.42mm

M73 P0 R194
M73 Q0 S195
M201 X1000 Y1000 Z200 E5000 ; sets maximum accelerations, mm/sec^2
M203 X200 Y200 Z12 E120 ; sets maximum feedrates, mm / sec
M204 S1250 T1250 ; sets acceleration (S) and retract acceleration (R), mm/sec^2
M205 X8.00 Y8.00 Z0.40 E4.50 ; sets the jerk limits, mm/sec
M205 S0 T0 ; sets the minimum extruding and travel feed rate, mm/sec

; printing object board-1-1.stl id:0 copy 0
; stop printing object board-1-1.stl id:0 copy 0

;TYPE:Custom
M862.3 P "MK3S" ; printer model check
M862.1 P0.4 ; nozzle diameter check
M115 U3.13.3 ; tell printer latest fw version
G90 ; use absolute coordinates
M83 ; extruder relative mode
M104 S250 ; set extruder temp
M140 S60 ; set bed temp
M190 S60 ; wait for bed temp
M109 S250 ; wait for extruder temp
G28 W ; home all without mesh bed level
G80 X17.9431 Y16.1617 W209.675 H185.712 ; mesh bed levelling

G1 Z0.2 F720
G1 Y-3 F1000 ; go outside print area
G92 E0
G1 X60 E9 F1000 ; intro line
G1 X100 E12.5 F1000 ; intro line
M73 Q0 S194

G92 E0
M221 S95

; Don't change E values below. Excessive value can damage the printer.
M907 E430 ; set extruder motor current
G21 ; set units to millimeters
G90 ; use absolute coordinates
M83 ; use relative distances for extrusion

M900 K0.05 ; Filament gcode LA 1.5
M900 K30 ; Filament gcode LA 1.0




M107
;LAYER_CHANGE
;Z:0.2
;HEIGHT:0.2
G1 E-.8 F2100
G1 Z.6 F720
G1 X22.222 Y23.174 F10800
G1 Z.2 F720
G1 E.8 F2100
M204 S800
;TYPE:Skirt/Brim
;WIDTH:0.42
G1 F1200
G1 X23.39 Y22.45 E.04309
G1 X28.427 Y21.113 E.1634
G1 X57.661 Y16.375 E.92857
G1 X58.204 Y16.35 E.01704
G1 X211.216 Y26.862 E4.80889
G1 X212.152 Y27.067 E.03004
G1 X213.217 Y27.682 E.03856
G1 X226.691 Y41.156 E.59746
G1 X227.306 Y42.221 E.03856
G1 X227.436 Y42.704 E.01568
G1 X227.436 Y43.935 E.0386
G1 X222.504 Y62.341 E.59747
G1 X221.977 Y63.313 E.03467
G1 X98.363 Y200.983 E5.80126
G1 X97.198 Y201.694 E.04279
M73 P0 R193
G1 X95.979 Y201.691 E.03822
G1 X63.157 Y192.897 E1.06541
G1 X61.996 Y192.18 E.04278
G1 X61.476 Y191.216 E.03434
G1 X18.125 Y29.427 E5.25173
G1 X18.165 Y28.063 E.04279
G1 X18.638 Y27.24 E.02976
G1 X22.182 Y23.219 E.16806
M204 S1000
;WIPE_START
G1 F8640
G1 X22.222 Y23.174 E-.0139
G1 X23.39 Y22.45 E-.3173
G1 X25.352 Y21.929 E-.4688
;WIPE_END
G1 Z.6 F720
; printing object board-1-1.stl id:0 copy 0
G1 X95.523 Y188.844 F10800
G1 Z.2 F720
G1 E.8 F2100
M204 S800
;TYPE:Perimeter
;WIDTH:0.419999
G1 F1200
G1 X95.48 Y188.919 E.00271
G1 X94.015 Y194.388 E.17752
G1 X93.996 Y194.508 E.00381
G1 X94.073 Y194.819 E.01005
G1 X94.203 Y194.971 E.00627
G1 X94.323 Y195.047 E.00445
G1 X94.611 Y195.097 E.00917
G1 X96.986 Y194.89 E.07475
G1 X96.037 Y198.431 E.11494
G1 X64.415 Y189.958 E1.02646
G1 X21.385 Y29.368 E5.2128
G1 X26.345 Y28.039 E.161
G1 X26.487 Y27.979 E.00483
G1 X26.695 Y27.763 E.0094
G1 X26.764 Y27.506 E.00834
G1 X26.756 Y27.394 E.00352
G1 X26.662 Y27.168 E.00767
G1 X25.295 Y25.215 E.07474
G1 X27.925 Y24.51 E.08537
G1 X27.718 Y26.885 E.07475
G1 X27.724 Y27.033 E.00464
G1 X27.798 Y27.229 E.00657
G1 X27.986 Y27.418 E.00836
G1 X28.194 Y27.494 E.00694
G1 X28.427 Y27.482 E.00732
G1 X57.806 Y19.599 E.95374
G1 X71.001 Y32.794 E.58509
G1 X71.254 Y32.94 E.00916
G1 X71.866 Y33.104 E.01987
G1 X72.145 Y33.1 E.00875
G1 X90.169 Y28.271 E.58506
G1 X103.363 Y41.465 E.58504
G1 X103.617 Y41.612 E.0092
G1 X104.224 Y41.774 E.0197
G1 X104.507 Y41.772 E.00887
G1 X122.531 Y36.942 E.58507
G1 X135.726 Y50.137 E.58509
G1 X135.98 Y50.283 E.00919
G1 X136.587 Y50.446 E.01971
G1 X136.866 Y50.444 E.00875
G1 X154.894 Y45.614 E.58519
G1 X168.093 Y58.813 E.58526
G1 X168.342 Y58.955 E.00899
M73 Q0 S193
G1 X168.96 Y59.12 E.02006
G1 X169.23 Y59.115 E.00847
G1 X187.909 Y54.11 E.60633
G1 X188.171 Y53.956 E.00953
G1 X188.312 Y53.701 E.00914
G1 X188.309 Y53.418 E.00887
G1 X188.177 Y52.924 E.01603
G1 X192.99 Y34.964 E.58299
G1 X193.055 Y34.871 E.00356
G1 X211.016 Y30.058 E.58302
G1 X211.129 Y30.068 E.00356
G1 X224.277 Y43.216 E.583
G1 X224.315 Y43.282 E.00239
G1 X224.325 Y43.32 E.00123
G1 X219.512 Y61.28 E.58299
G1 X219.447 Y61.373 E.00356
G1 X201.923 Y66.069 E.56884
G1 X201.051 Y66.307 E.02834
G1 X200.837 Y66.463 E.0083
G1 X200.722 Y66.683 E.00778
G1 X195.821 Y84.971 E.59364
G1 X195.756 Y85.064 E.00356
G1 X177.497 Y89.957 E.5927
G1 X177.405 Y89.982 E.00299
G1 X177.166 Y90.132 E.00885
G1 X177.03 Y90.375 E.00873
G1 X172.13 Y108.662 E.5936
G1 X172.065 Y108.755 E.00356
G1 X153.724 Y113.67 E.59536
G1 X153.48 Y113.818 E.00895
G1 X153.339 Y114.066 E.00894
G1 X148.439 Y132.353 E.5936
G1 X148.374 Y132.446 E.00356
G1 X130.048 Y137.357 E.59487
G1 X129.786 Y137.512 E.00954
G1 X129.648 Y137.757 E.00882
G1 X124.748 Y156.044 E.5936
G1 X124.683 Y156.137 E.00356
G1 X106.357 Y161.048 E.59487
G1 X106.097 Y161.201 E.00946
G1 X105.957 Y161.448 E.0089
G1 X98.305 Y189.97 E.92591
G1 X96.351 Y188.602 E.07479
G1 X96.065 Y188.501 E.00951
G1 X95.819 Y188.54 E.00781
G1 X95.621 Y188.672 E.00746
G1 X95.553 Y188.792 E.00432
M204 S1000
G1 X95.553 Y188.792 F10800
G1 X95.844 Y189.017
M204 S800
;TYPE:External perimeter
G1 F1200
G1 X94.373 Y194.525 E.17875
G1 X94.442 Y194.68 E.00532
G1 X94.578 Y194.722 E.00446
G1 X97.49 Y194.467 E.09165
G1 X96.304 Y198.893 E.14367
G1 X64.107 Y190.266 E1.04512
G1 X20.923 Y29.102 E5.23143
G1 X26.304 Y27.649 E.17476
G1 X26.387 Y27.497 E.00543
G1 X26.353 Y27.384 E.0037
G1 X24.677 Y24.99 E.09163
G1 X28.348 Y24.007 E.11916
G1 X28.093 Y26.918 E.09162
G1 X28.095 Y26.968 E.00157
G1 X28.182 Y27.096 E.00485
G1 X28.33 Y27.117 E.00469
G1 X57.919 Y19.179 E.96055
G1 X71.267 Y32.527 E.59187
M73 P0 R192
G1 X71.352 Y32.576 E.00308
G1 X72.045 Y32.737 E.02231
G1 X90.282 Y27.85 E.59198
G1 X103.63 Y41.199 E.59189
G1 X103.715 Y41.247 E.00306
G1 X104.408 Y41.408 E.02231
G1 X122.644 Y36.522 E.59194
G1 X135.993 Y49.87 E.59189
G1 X136.077 Y49.919 E.00305
G1 X136.771 Y50.079 E.02233
G1 X155.007 Y45.193 E.59194
G1 X168.355 Y58.542 E.59189
G1 X168.44 Y58.59 E.00306
G1 X169.134 Y58.751 E.02234
G1 X187.812 Y53.746 E.6063
G1 X187.919 Y53.671 E.0041
G1 X187.945 Y53.515 E.00496
G1 X187.787 Y52.924 E.01918
G1 X192.662 Y34.731 E.59055
G1 X192.86 Y34.533 E.00878
G1 X211.053 Y29.658 E.59055
G1 X211.324 Y29.73 E.00879
G1 X224.643 Y43.049 E.59059
G1 X224.679 Y43.184 E.00438
G1 X224.715 Y43.32 E.00441
G1 X219.84 Y61.513 E.59055
G1 X219.642 Y61.711 E.00878
G1 X201.183 Y66.661 E.59922
G1 X201.086 Y66.781 E.00484
G1 X196.149 Y85.204 E.59802
G1 X195.951 Y85.402 E.00878
G1 X177.503 Y90.348 E.59885
G1 X177.395 Y90.47 E.00511
G1 X172.458 Y108.895 E.59808
G1 X172.26 Y109.093 E.00878
G1 X153.811 Y114.039 E.59888
G1 X153.704 Y114.161 E.00509
G1 X148.767 Y132.586 E.59808
G1 X148.569 Y132.785 E.0088
G1 X130.121 Y137.73 E.59884
G1 X130.013 Y137.852 E.00511
G1 X125.076 Y156.277 E.59808
G1 X124.878 Y156.476 E.0088
G1 X106.455 Y161.412 E.59801
G1 X106.426 Y161.422 E.00096
G1 X106.322 Y161.545 E.00505
G1 X98.529 Y190.588 E.94283
G1 X96.135 Y188.911 E.09165
G1 X96.083 Y188.886 E.00181
G1 X95.941 Y188.898 E.00447
G1 X95.882 Y188.97 E.00292
M204 S1000
;WIPE_START
G1 F8640
G1 X95.844 Y189.017 E-.01396
G1 X94.966 Y192.306 E-.78604
;WIPE_END
G1 Z.6 F720
G1 X210.857 Y30.277 F10800
G1 Z.2 F720
G1 E.8 F2100
M204 S800
;TYPE:Solid infill
;WIDTH:0.420056
G1 F1200
G1 X223.958 Y43.378 E.58101
G1 X223.845 Y43.798 E.01364
G1 X210.575 Y30.528 E.5885
G1 X210.154 Y30.64 E.01366
G1 X223.733 Y44.219 E.60221
G1 X223.62 Y44.639 E.01364
G1 X209.734 Y30.753 E.61582
G1 X209.313 Y30.866 E.01367
G1 X223.507 Y45.06 E.62948
M73 Q1 S193
G1 X223.395 Y45.481 E.01366
M73 P1 R192
G1 X208.892 Y30.979 E.64316
G1 X208.472 Y31.091 E.01363
G1 X223.282 Y45.901 E.6568
G1 X223.169 Y46.322 E.01367
G1 X208.051 Y31.204 E.67046
G1 X207.63 Y31.317 E.01367
M73 Q1 S192
G1 X223.056 Y46.743 E.68412
G1 X222.944 Y47.163 E.01363
G1 X207.21 Y31.429 E.69778
G1 X206.789 Y31.542 E.01367
G1 X222.831 Y47.584 E.71144
G1 X222.718 Y48.005 E.01367
G1 X206.369 Y31.655 E.72507
G1 X205.948 Y31.768 E.01367
G1 X222.606 Y48.425 E.73873
G1 X222.493 Y48.846 E.01367
G1 X205.527 Y31.88 E.75241
G1 X205.107 Y31.993 E.01364
G1 X222.38 Y49.267 E.76605
G1 X222.267 Y49.687 E.01364
G1 X204.686 Y32.106 E.77969
G1 X204.265 Y32.218 E.01366
G1 X222.155 Y50.108 E.79339
G1 X222.042 Y50.528 E.01364
G1 X203.845 Y32.331 E.80701
G1 X203.424 Y32.444 E.01367
G1 X221.929 Y50.949 E.82067
G1 X221.817 Y51.37 E.01366
G1 X203.003 Y32.557 E.83435
G1 X202.583 Y32.669 E.01363
G1 X221.704 Y51.79 E.84798
G1 X221.591 Y52.211 E.01367
G1 X202.162 Y32.782 E.86164
G1 X201.742 Y32.895 E.01364
G1 X221.478 Y52.632 E.87528
G1 X221.366 Y53.052 E.01363
G1 X201.321 Y33.007 E.88896
G1 X200.9 Y33.12 E.01367
G1 X221.253 Y53.473 E.90262
G1 X221.14 Y53.894 E.01367
G1 X200.48 Y33.233 E.91626
G1 X200.059 Y33.346 E.01367
G1 X221.028 Y54.314 E.92992
G1 X220.915 Y54.735 E.01367
G1 X199.638 Y33.458 E.9436
G1 X199.218 Y33.571 E.01364
G1 X220.802 Y55.155 E.95721
G1 X220.689 Y55.576 E.01367
M73 P1 R191
G1 X198.797 Y33.684 E.97087
G1 X198.376 Y33.796 E.01366
G1 X220.577 Y55.997 E.98458
G1 X220.464 Y56.417 E.01364
G1 X197.956 Y33.909 E.99819
G1 X197.535 Y34.022 E.01367
G1 X220.351 Y56.838 E1.01185
G1 X220.239 Y57.259 E.01366
G1 X197.114 Y34.134 E1.02555
G1 X196.694 Y34.247 E.01364
G1 X220.126 Y57.679 E1.03917
G1 X220.013 Y58.1 E.01367
G1 X196.273 Y34.36 E1.05283
G1 X195.853 Y34.473 E.01364
G1 X219.901 Y58.521 E1.06649
G1 X219.788 Y58.941 E.01364
G1 X195.432 Y34.585 E1.08015
G1 X195.011 Y34.698 E.01367
G1 X219.675 Y59.362 E1.09381
G1 X219.562 Y59.783 E.01367
G1 X194.591 Y34.811 E1.10744
G1 X194.17 Y34.923 E.01366
G1 X219.45 Y60.203 E1.12113
G1 X219.337 Y60.624 E.01367
G1 X193.749 Y35.036 E1.13478
G1 X193.329 Y35.149 E.01364
G1 X219.224 Y61.044 E1.1484
G1 X219.214 Y61.084 E.00129
G1 X218.833 Y61.186 E.01237
G1 X193.187 Y35.54 E1.13736
G1 X193.074 Y35.961 E.01367
G1 X218.412 Y61.299 E1.1237
G1 X217.992 Y61.412 E.01364
G1 X192.961 Y36.382 E1.11006
G1 X192.849 Y36.802 E.01363
G1 X217.571 Y61.525 E1.0964
G1 X217.15 Y61.637 E.01366
M73 Q1 S191
G1 X192.736 Y37.223 E1.08272
G1 X192.623 Y37.643 E.01364
G1 X216.73 Y61.75 E1.0691
G1 X216.309 Y61.863 E.01367
G1 X192.51 Y38.064 E1.05545
G1 X192.398 Y38.485 E.01366
G1 X215.888 Y61.975 E1.04174
G1 X215.468 Y62.088 E.01364
G1 X192.285 Y38.905 E1.02813
G1 X192.172 Y39.326 E.01367
G1 X215.047 Y62.201 E1.01447
G1 X214.627 Y62.314 E.01364
G1 X192.06 Y39.747 E1.00081
G1 X191.947 Y40.167 E.01364
G1 X214.206 Y62.426 E.98715
G1 X213.785 Y62.539 E.01367
G1 X191.834 Y40.588 E.97349
G1 X191.721 Y41.009 E.01367
G1 X213.365 Y62.652 E.95985
G1 X212.944 Y62.764 E.01366
G1 X191.609 Y41.429 E.94617
G1 X191.496 Y41.85 E.01367
G1 X212.523 Y62.877 E.93251
G1 X212.103 Y62.99 E.01364
G1 X191.383 Y42.27 E.9189
G1 X191.271 Y42.691 E.01366
G1 X211.682 Y63.103 E.90522
G1 X211.261 Y63.215 E.01366
G1 X191.158 Y43.112 E.89153
G1 X191.045 Y43.532 E.01364
G1 X210.841 Y63.328 E.87792
G1 X210.42 Y63.441 E.01367
G1 X190.932 Y43.953 E.86426
G1 X190.82 Y44.374 E.01366
G1 X209.999 Y63.553 E.85056
G1 X209.579 Y63.666 E.01364
M73 P1 R190
G1 X190.707 Y44.794 E.83694
G1 X190.594 Y45.215 E.01367
G1 X209.158 Y63.779 E.82328
G1 X208.738 Y63.891 E.01363
G1 X190.482 Y45.636 E.8096
G1 X190.369 Y46.056 E.01364
G1 X208.317 Y64.004 E.79596
G1 X207.896 Y64.117 E.01367
G1 X190.256 Y46.477 E.7823
G1 X190.144 Y46.898 E.01366
G1 X207.476 Y64.23 E.76864
G1 X207.055 Y64.342 E.01366
G1 X190.031 Y47.318 E.75499
G1 X189.918 Y47.739 E.01367
G1 X206.634 Y64.455 E.74133
G1 X206.214 Y64.568 E.01364
G1 X189.805 Y48.159 E.72771
G1 X189.693 Y48.58 E.01366
G1 X205.793 Y64.68 E.71401
G1 X205.372 Y64.793 E.01367
G1 X189.58 Y49.001 E.70035
G1 X189.467 Y49.421 E.01364
G1 X204.952 Y64.906 E.68673
G1 X204.531 Y65.019 E.01367
G1 X189.355 Y49.842 E.67305
G1 X189.242 Y50.263 E.01367
G1 X204.11 Y65.131 E.65937
G1 X203.69 Y65.244 E.01364
G1 X189.129 Y50.683 E.64576
G1 X189.016 Y51.104 E.01367
G1 X203.269 Y65.357 E.6321
G1 X202.849 Y65.469 E.01363
G1 X188.904 Y51.525 E.61841
G1 X188.791 Y51.945 E.01364
G1 X202.428 Y65.582 E.60478
G1 X202.007 Y65.695 E.01367
G1 X188.678 Y52.366 E.59112
G1 X188.566 Y52.787 E.01366
G1 X201.587 Y65.808 E.57746
G1 X201.166 Y65.92 E.01366
G1 X188.647 Y53.401 E.5552
G1 X188.669 Y53.595 E.00612
G1 X188.607 Y53.894 E.00958
G1 X200.783 Y66.071 E.54001
G1 X200.742 Y66.09 E.00142
M73 Q2 S191
G1 X200.515 Y66.335 E.01047
G1 X188.391 Y54.212 E.53766
G1 X188.245 Y54.332 E.00593
M73 P2 R190
G1 X188.059 Y54.413 E.00636
G1 X200.362 Y66.716 E.54562
G1 X200.249 Y67.137 E.01367
G1 X187.645 Y54.533 E.55897
G1 X187.224 Y54.645 E.01366
G1 X200.136 Y67.557 E.57263
G1 X200.023 Y67.978 E.01367
G1 X186.804 Y54.758 E.58626
G1 X186.383 Y54.871 E.01367
G1 X199.911 Y68.398 E.59992
G1 X199.798 Y68.819 E.01367
G1 X185.962 Y54.983 E.6136
G1 X185.542 Y55.096 E.01364
M73 Q2 S190
G1 X199.685 Y69.24 E.62724
G1 X199.573 Y69.66 E.01363
G1 X185.121 Y55.209 E.6409
G1 X184.7 Y55.322 E.01367
G1 X199.46 Y70.081 E.65456
G1 X199.347 Y70.502 E.01367
G1 X184.28 Y55.434 E.66822
G1 X183.859 Y55.547 E.01367
G1 X199.234 Y70.922 E.68186
G1 X199.122 Y71.343 E.01366
G1 X183.438 Y55.66 E.69554
G1 X183.018 Y55.772 E.01363
G1 X199.009 Y71.764 E.7092
G1 X198.896 Y72.184 E.01364
G1 X182.597 Y55.885 E.72283
G1 X182.177 Y55.998 E.01364
G1 X198.784 Y72.605 E.73649
G1 X198.671 Y73.025 E.01364
G1 X181.756 Y56.111 E.75013
G1 X181.335 Y56.223 E.01366
G1 X198.558 Y73.446 E.76381
G1 X198.445 Y73.867 E.01367
G1 X180.915 Y56.336 E.77745
G1 X180.494 Y56.449 E.01367
G1 X198.333 Y74.287 E.79111
G1 X198.22 Y74.708 E.01367
G1 X180.073 Y56.561 E.80479
G1 X179.653 Y56.674 E.01364
G1 X198.107 Y75.129 E.81843
G1 X197.995 Y75.549 E.01363
G1 X179.232 Y56.787 E.83209
G1 X178.811 Y56.899 E.01366
G1 X197.882 Y75.97 E.84577
G1 X197.769 Y76.391 E.01367
G1 X178.391 Y57.012 E.8594
G1 X177.97 Y57.125 E.01367
G1 X197.657 Y76.811 E.87306
G1 X197.544 Y77.232 E.01367
G1 X177.55 Y57.238 E.8867
G1 X177.129 Y57.35 E.01366
G1 X197.431 Y77.653 E.90038
G1 X197.318 Y78.073 E.01364
G1 X176.708 Y57.463 E.91402
G1 X176.288 Y57.576 E.01364
M73 P2 R189
G1 X197.206 Y78.494 E.92768
G1 X197.093 Y78.914 E.01364
G1 X175.867 Y57.688 E.94134
G1 X175.446 Y57.801 E.01367
G1 X196.98 Y79.335 E.955
G1 X196.868 Y79.756 E.01366
G1 X175.026 Y57.914 E.96866
G1 X174.605 Y58.027 E.01367
G1 X196.755 Y80.176 E.98229
G1 X196.642 Y80.597 E.01367
G1 X174.184 Y58.139 E.99597
G1 X173.764 Y58.252 E.01364
G1 X196.529 Y81.018 E1.00961
G1 X196.417 Y81.438 E.01363
G1 X173.343 Y58.365 E1.02327
G1 X172.922 Y58.477 E.01366
G1 X196.304 Y81.859 E1.03695
G1 X196.191 Y82.28 E.01367
G1 X172.502 Y58.59 E1.05059
G1 X172.081 Y58.703 E.01367
G1 X196.079 Y82.7 E1.06425
G1 X195.966 Y83.121 E.01367
G1 X171.661 Y58.816 E1.07789
G1 X171.24 Y58.928 E.01366
G1 X195.853 Y83.541 E1.09154
G1 X195.74 Y83.962 E.01367
G1 X170.819 Y59.041 E1.1052
G1 X170.399 Y59.154 E.01364
G1 X195.628 Y84.383 E1.11886
G1 X195.522 Y84.776 E.01276
G1 X195.495 Y84.783 E.00087
G1 X169.978 Y59.266 E1.13164
G1 X169.557 Y59.379 E.01367
G1 X195.074 Y84.896 E1.13164
G1 X194.653 Y85.008 E.01366
G1 X169.107 Y59.462 E1.13292
G1 X168.992 Y59.471 E.00362
G1 X168.44 Y59.328 E.01788
G1 X194.233 Y85.121 E1.14388
G1 X193.812 Y85.234 E.01367
M73 Q2 S189
G1 X154.617 Y46.039 E1.73823
G1 X154.197 Y46.152 E.01364
G1 X193.391 Y85.347 E1.73821
G1 X192.971 Y85.459 E.01363
G1 X153.776 Y46.265 E1.73821
G1 X153.355 Y46.377 E.01366
G1 X192.55 Y85.572 E1.73823
G1 X192.129 Y85.685 E.01367
G1 X152.935 Y46.49 E1.73821
G1 X152.514 Y46.603 E.01367
G1 X191.709 Y85.797 E1.73821
G1 X191.288 Y85.91 E.01367
G1 X152.094 Y46.715 E1.73821
G1 X151.673 Y46.828 E.01367
G1 X190.868 Y86.023 E1.73823
G1 X190.447 Y86.136 E.01367
G1 X151.252 Y46.941 E1.73823
G1 X150.832 Y47.054 E.01364
G1 X190.026 Y86.248 E1.73819
G1 X189.606 Y86.361 E.01364
M73 P2 R188
G1 X150.411 Y47.166 E1.73823
G1 X149.99 Y47.279 E.01367
G1 X189.185 Y86.474 E1.73823
G1 X188.764 Y86.586 E.01366
G1 X149.57 Y47.392 E1.73819
