; generated by PrusaSlicer 2.7.4+win64 on 2024-07-11 at 22:14:21 UTC


;
;
; 

; external perimeters extrusion width = 0.45mm
; perimeters extrusion width = 0.45mm
; infill extrusion width = 0.45mm
; solid infill extrusion width = 0.45mm
; top infill extrusion width = 0.40mm
; first layer extrusion width = 0.42mm

M73 P0 R187
M73 Q0 S187
M201 X1000 Y1000 Z200 E5000 ; sets maximum accelerations, mm/sec^2
M203 X200 Y200 Z12 E120 ; sets maximum feedrates, mm / sec
M204 S1250 T1250 ; sets acceleration (S) and retract acceleration (R), mm/sec^2
M205 X8.00 Y8.00 Z0.40 E4.50 ; sets the jerk limits, mm/sec
M205 S0 T0 ; sets the minimum extruding and travel feed rate, mm/sec

; printing object board-1-5.stl id:0 copy 0
; stop printing object board-1-5.stl id:0 copy 0

;TYPE:Custom
M862.3 P "MK3S" ; printer model check
M862.1 P0.4 ; nozzle diameter check
M115 U3.13.3 ; tell printer latest fw version
G90 ; use absolute coordinates
M83 ; extruder relative mode
M104 S250 ; set extruder temp
M140 S60 ; set bed temp
M190 S60 ; wait for bed temp
M109 S250 ; wait for extruder temp
G28 W ; home all without mesh bed level
G80 X40.1646 Y10.0615 W169.671 H189.875 ; mesh bed levelling

G1 Z0.2 F720
G1 Y-3 F1000 ; go outside print area
G92 E0
G1 X60 E9 F1000 ; intro line
G1 X100 E12.5 F1000 ; intro line

G92 E0
M221 S95

; Don't change E values below. Excessive value can damage the printer.
M907 E430 ; set extruder motor current
G21 ; set units to millimeters
G90 ; use absolute coordinates
M83 ; use relative distances for extrusion

M900 K0.05 ; Filament gcode LA 1.5
M900 K30 ; Filament gcode LA 1.0




M107
;LAYER_CHANGE
;Z:0.2
;HEIGHT:0.2
G1 E-.8 F2100
G1 Z.6 F720
G1 X43.081 Y24.141 F10800
G1 Z.2 F720
G1 E.8 F2100
M204 S800
;TYPE:Skirt/Brim
;WIDTH:0.42
G1 F1200
M73 P0 R186
G1 X50.184 Y11.465 E.45559
G1 X51.165 Y10.516 E.0428
G1 X52.258 Y10.25 E.03527
G1 X71.313 Y10.25 E.59746
G1 X72.364 Y10.495 E.03384
G1 X208.321 Y77.514 E4.75262
G1 X209.32 Y78.443 E.04277
G1 X209.647 Y79.646 E.03909
G1 X209.647 Y113.625 E1.06539
G1 X209.255 Y114.932 E.04278
G1 X208.458 Y115.683 E.03434
G1 X63.402 Y199.431 E5.25173
G1 X62.075 Y199.746 E.04276
G1 X61.157 Y199.502 E.02978
G1 X56.302 Y197.093 E.16993
G1 X55.3 Y196.152 E.0431
G1 X52.705 Y191.633 E.16339
G1 X40.562 Y164.621 E.92859
G1 X40.353 Y163.646 E.03126
G1 X40.353 Y29.629 E4.20201
G1 X40.657 Y28.467 E.03766
M73 Q0 S186
G1 X43.051 Y24.194 E.15357
M204 S1000
;WIPE_START
G1 F8640
G1 X43.081 Y24.141 E-.01406
G1 X44.745 Y21.172 E-.78594
;WIPE_END
G1 Z.6 F720
; printing object board-1-5.stl id:0 copy 0
G1 X197.355 Y83.411 F10800
G1 Z.2 F720
G1 E.8 F2100
M204 S800
;TYPE:Perimeter
;WIDTH:0.419999
G1 F1200
G1 X197.439 Y83.433 E.00272
G1 X203.1 Y83.433 E.1775
G1 X203.222 Y83.419 E.00385
G1 X203.502 Y83.265 E.01002
G1 X203.616 Y83.1 E.00629
G1 X203.657 Y82.965 E.00442
G1 X203.632 Y82.674 E.00916
G1 X202.816 Y80.433 E.07478
G1 X206.483 Y80.433 E.11498
G1 X206.483 Y81.943 E.04734
G1 X206.483 Y113.17 E.9791
G1 X62.502 Y196.298 E5.21281
G1 X59.934 Y191.85 E.16104
G1 X59.84 Y191.729 E.0048
G1 X59.577 Y191.583 E.00943
G1 X59.311 Y191.584 E.00834
G1 X59.12 Y191.67 E.00657
G1 X59.011 Y191.77 E.00464
G1 X57.478 Y193.596 E.07475
G1 X56.117 Y191.238 E.08536
G1 X58.465 Y190.824 E.07476
G1 X58.606 Y190.779 E.00464
G1 X58.776 Y190.657 E.00656
G1 X58.909 Y190.427 E.00833
G1 X58.929 Y190.206 E.00696
G1 X58.857 Y189.984 E.00732
G1 X43.639 Y163.646 E.95375
G1 X52.969 Y147.486 E.58507
G1 X53.045 Y147.203 E.00919
G1 X53.045 Y146.571 E.01982
G1 X52.969 Y146.302 E.00876
G1 X43.639 Y130.142 E.58507
G1 X52.969 Y113.982 E.58507
G1 X53.045 Y113.699 E.00919
G1 X53.045 Y113.071 E.01969
G1 X52.969 Y112.798 E.00889
G1 X43.639 Y96.638 E.58507
G1 X52.969 Y80.478 E.58507
G1 X53.045 Y80.195 E.00919
G1 X53.045 Y79.566 E.01972
G1 X52.971 Y79.297 E.00875
G1 X43.639 Y63.134 E.58518
G1 X52.969 Y46.974 E.58507
G1 X53.045 Y46.691 E.00919
G1 X53.044 Y46.051 E.02007
G1 X52.97 Y45.791 E.00848
G1 X43.639 Y29.629 E.58514
G1 X52.969 Y13.469 E.58507
G1 X52.984 Y13.414 E.00179
G1 X71.063 Y13.414 E.56685
G1 X71.17 Y13.453 E.00357
G1 X80.621 Y29.824 E.5927
G1 X80.67 Y29.907 E.00302
G1 X80.876 Y30.098 E.00881
G1 X81.145 Y30.166 E.0087
G1 X100.078 Y30.166 E.59363
G1 X100.185 Y30.205 E.00357
G1 X109.679 Y46.65 E.59538
G1 X109.885 Y46.847 E.00894
G1 X110.161 Y46.918 E.00894
G1 X129.094 Y46.918 E.59363
G1 X129.201 Y46.958 E.00358
G1 X138.687 Y63.388 E.59485
G1 X138.904 Y63.601 E.00953
G1 X139.176 Y63.671 E.00881
G1 X158.109 Y63.671 E.59363
G1 X158.216 Y63.71 E.00357
G1 X167.702 Y80.14 E.59485
G1 X167.917 Y80.351 E.00945
G1 X168.192 Y80.423 E.00891
G1 X197.723 Y80.432 E.92592
G1 X196.908 Y82.674 E.0748
M73 P0 R185
G1 X196.884 Y82.976 E.0095
G1 X196.985 Y83.204 E.00782
G1 X197.164 Y83.361 E.00747
G1 X197.297 Y83.396 E.00431
M204 S1000
G1 X197.297 Y83.396 F10800
G1 X197.439 Y83.056
M204 S800
;TYPE:External perimeter
G1 F1200
G1 X203.141 Y83.051 E.17878
G1 X203.272 Y82.945 E.00528
G1 X203.277 Y82.803 E.00446
G1 X202.278 Y80.056 E.09165
G1 X206.86 Y80.056 E.14367
G1 X206.86 Y81.943 E.05917
G1 X206.86 Y113.388 E.98593
G1 X62.364 Y196.813 E5.23145
G1 X59.569 Y191.991 E.17475
G1 X59.4 Y191.95 E.00545
G1 X59.3 Y192.012 E.00369
G1 X57.421 Y194.251 E.09165
G1 X55.521 Y190.96 E.11915
G1 X58.4 Y190.452 E.09166
G1 X58.447 Y190.438 E.00154
G1 X58.548 Y190.32 E.00487
G1 X58.53 Y190.172 E.00467
G1 X43.204 Y163.646 E.96054
G1 X52.642 Y147.298 E.59187
G1 X52.668 Y147.203 E.00309
G1 X52.644 Y146.492 E.02231
G1 X43.204 Y130.142 E.59195
G1 X52.642 Y113.793 E.59189
G1 X52.668 Y113.699 E.00306
G1 X52.644 Y112.988 E.02231
G1 X43.204 Y96.638 E.59195
G1 X52.642 Y80.289 E.59189
G1 X52.668 Y80.195 E.00306
G1 X52.643 Y79.483 E.02234
G1 X43.204 Y63.134 E.59191
G1 X52.642 Y46.785 E.59189
G1 X52.668 Y46.691 E.00306
G1 X52.643 Y45.978 E.02237
G1 X43.204 Y29.629 E.59191
G1 X52.642 Y13.281 E.59187
G1 X52.668 Y13.037 E.00769
G1 X71.203 Y13.037 E.58115
G1 X71.446 Y13.177 E.00879
M73 Q0 S185
G1 X80.948 Y29.636 E.59588
G1 X80.997 Y29.717 E.00297
G1 X81.143 Y29.789 E.0051
G1 X100.218 Y29.789 E.59808
G1 X100.461 Y29.929 E.00879
G1 X109.863 Y46.215 E.58962
G1 X110.013 Y46.47 E.00928
G1 X110.159 Y46.541 E.00509
G1 X129.234 Y46.541 E.59808
G1 X129.477 Y46.682 E.00881
G1 X139.013 Y63.199 E.59799
G1 X139.174 Y63.294 E.00586
G1 X158.249 Y63.294 E.59808
G1 X158.492 Y63.434 E.00879
G1 X168.029 Y79.951 E.59801
G1 X168.046 Y79.977 E.00097
G1 X168.192 Y80.046 E.00506
G1 X198.262 Y80.056 E.94282
G1 X197.262 Y82.803 E.09166
G1 X197.251 Y82.859 E.00179
G1 X197.299 Y82.993 E.00446
G1 X197.384 Y83.031 E.00292
M204 S1000
;WIPE_START
G1 F8640
G1 X197.439 Y83.056 E-.01395
G1 X200.843 Y83.053 E-.78605
;WIPE_END
G1 Z.6 F720
G1 X71.48 Y14.33 F10800
G1 Z.2 F720
G1 E.8 F2100
M204 S800
;TYPE:Solid infill
;WIDTH:0.420401
G1 F1200
G1 X70.904 Y13.754 E.02557
G1 X70.37 Y13.754 E.01676
G1 X71.745 Y15.129 E.06103
G1 X72.474 Y16.392 E.04577
G1 X69.836 Y13.754 E.1171
G1 X69.302 Y13.754 E.01676
G1 X73.204 Y17.655 E.17318
G1 X73.933 Y18.918 E.04577
G1 X68.768 Y13.754 E.22925
G1 X68.234 Y13.754 E.01676
G1 X74.662 Y20.181 E.28531
G1 X75.391 Y21.444 E.04577
G1 X67.701 Y13.754 E.34135
G1 X67.167 Y13.754 E.01676
G1 X76.121 Y22.708 E.39746
G1 X76.85 Y23.971 E.04577
G1 X66.633 Y13.754 E.45352
G1 X66.099 Y13.754 E.01676
G1 X77.579 Y25.234 E.50958
G1 X78.308 Y26.497 E.04577
G1 X65.565 Y13.754 E.56565
G1 X65.031 Y13.754 E.01676
G1 X79.501 Y28.223 E.64228
M204 S1000
;WIPE_START
G1 F8640
G1 X77.051 Y25.773 E-.8
;WIPE_END
G1 Z.6 F720
G1 X100.475 Y31.046 F10800
G1 Z.2 F720
G1 E.8 F2100
M204 S800
G1 F1200
G1 X99.934 Y30.506 E.02399
G1 X99.4 Y30.506 E.01676
G1 X100.74 Y31.846 E.05948
G1 X101.47 Y33.109 E.04579
G1 X98.866 Y30.506 E.11557
G1 X98.332 Y30.506 E.01676
G1 X102.199 Y34.372 E.17163
G1 X102.928 Y35.635 E.04577
G1 X97.799 Y30.506 E.22767
G1 X97.265 Y30.506 E.01676
G1 X103.657 Y36.898 E.28373
G1 X104.387 Y38.161 E.04579
G1 X96.731 Y30.506 E.33982
G1 X96.197 Y30.506 E.01676
G1 X105.116 Y39.424 E.39588
G1 X105.845 Y40.687 E.04577
G1 X95.663 Y30.506 E.45195
G1 X95.129 Y30.506 E.01676
M73 Q1 S185
G1 X106.574 Y41.951 E.50803
G1 X107.303 Y43.214 E.04577
M73 P1 R185
G1 X94.596 Y30.506 E.56407
G1 X94.062 Y30.506 E.01676
G1 X108.496 Y44.94 E.64071
M204 S1000
;WIPE_START
G1 F8640
G1 X106.046 Y42.49 E-.8
;WIPE_END
G1 Z.6 F720
G1 X128.795 Y47.088 F10800
G1 Z.2 F720
G1 E.8 F2100
M204 S800
G1 F1200
G1 X129.006 Y47.3 E.00939
G1 X129.736 Y48.563 E.04579
G1 X128.431 Y47.258 E.05793
G1 X127.897 Y47.258 E.01676
G1 X130.465 Y49.826 E.11399
G1 X131.194 Y51.089 E.04577
G1 X127.363 Y47.258 E.17005
G1 X126.829 Y47.258 E.01676
G1 X131.923 Y52.352 E.22612
G1 X132.653 Y53.615 E.04579
G1 X126.295 Y47.258 E.2822
G1 X125.761 Y47.258 E.01676
G1 X133.382 Y54.878 E.33827
G1 X134.111 Y56.141 E.04577
G1 X125.227 Y47.258 E.39433
G1 X124.694 Y47.258 E.01673
G1 X134.84 Y57.404 E.45037
G1 X135.57 Y58.668 E.04582
G1 X124.16 Y47.258 E.50648
G1 X123.626 Y47.258 E.01676
G1 X136.299 Y59.931 E.56254
G1 X137.028 Y61.194 E.04577
G1 X122.922 Y47.088 E.62615
M204 S1000
;WIPE_START
G1 F8640
G1 X125.372 Y49.538 E-.8
;WIPE_END
G1 Z.6 F720
G1 X157.825 Y63.84 F10800
G1 Z.2 F720
G1 E.8 F2100
M204 S800
G1 F1200
G1 X158.001 Y64.017 E.00783
G1 X158.731 Y65.28 E.04579
G1 X157.461 Y64.01 E.05637
G1 X156.927 Y64.01 E.01676
G1 X159.46 Y66.543 E.11244
G1 X160.189 Y67.806 E.04577
G1 X156.393 Y64.01 E.1685
G1 X155.859 Y64.01 E.01676
G1 X160.918 Y69.069 E.22456
G1 X161.648 Y70.332 E.04579
G1 X155.326 Y64.01 E.28063
G1 X154.792 Y64.01 E.01676
G1 X162.377 Y71.595 E.33669
G1 X163.106 Y72.858 E.04577
G1 X154.258 Y64.01 E.39275
G1 X153.724 Y64.01 E.01676
G1 X163.835 Y74.121 E.44882
G1 X164.565 Y75.384 E.04579
G1 X153.19 Y64.01 E.5049
G1 X152.656 Y64.01 E.01676
M73 P1 R184
G1 X165.294 Y76.648 E.56099
G1 X166.023 Y77.911 E.04577
G1 X151.953 Y63.84 E.62457
M204 S1000
;WIPE_START
G1 F8640
G1 X154.403 Y66.29 E-.8
;WIPE_END
G1 Z.6 F720
G1 X197.008 Y80.602 F10800
G1 Z.2 F720
G1 E.8 F2100
M204 S800
G1 F1200
G1 X197.222 Y80.816 E.0095
G1 X197.08 Y81.208 E.01309
G1 X196.644 Y80.771 E.01938
G1 X196.11 Y80.771 E.01676
G1 X196.938 Y81.599 E.03675
G1 X196.795 Y81.991 E.0131
G1 X195.576 Y80.771 E.05413
G1 X195.042 Y80.771 E.01676
G1 X196.785 Y82.514 E.07737
M204 S1000
;WIPE_START
G1 F8640
G1 X195.042 Y80.771 E-.56917
G1 X195.576 Y80.771 E-.1233
G1 X195.905 Y81.1 E-.10753
;WIPE_END
G1 Z.6 F720
G1 X205.55 Y80.602 F10800
G1 Z.2 F720
G1 E.8 F2100
M204 S800
G1 F1200
G1 X206.143 Y81.196 E.02634
G1 X206.143 Y81.73 E.01676
G1 X205.186 Y80.772 E.0425
G1 X204.652 Y80.772 E.01676
G1 X206.143 Y82.264 E.06621
G1 X206.143 Y82.797 E.01673
G1 X204.118 Y80.772 E.08989
G1 X203.584 Y80.772 E.01676
G1 X206.143 Y83.331 E.11359
G1 X206.143 Y83.865 E.01676
G1 X203.444 Y81.166 E.11981
G1 X203.75 Y82.005 E.02803
G1 X206.143 Y84.399 E.10624
G1 X206.143 Y84.933 E.01676
G1 X203.993 Y82.782 E.09546
G1 X204.006 Y82.86 E.00248
G1 X203.992 Y83.026 E.00523
G1 X203.923 Y83.247 E.00727
G1 X206.143 Y85.467 E.09854
G1 X206.143 Y86 E.01673
G1 X203.689 Y83.546 E.10893
G1 X203.519 Y83.671 E.00662
G1 X203.344 Y83.735 E.00585
G1 X206.143 Y86.534 E.12424
G1 X206.143 Y87.068 E.01676
G1 X202.847 Y83.772 E.14631
G1 X202.313 Y83.772 E.01676
G1 X206.143 Y87.602 E.17001
G1 X206.143 Y88.136 E.01676
G1 X201.78 Y83.772 E.19369
G1 X201.246 Y83.772 E.01676
G1 X206.143 Y88.67 E.21739
G1 X206.143 Y89.203 E.01673
G1 X200.712 Y83.772 E.24108
G1 X200.178 Y83.772 E.01676
G1 X206.143 Y89.737 E.26478
G1 X206.143 Y90.271 E.01676
G1 X199.644 Y83.772 E.28848
G1 X199.11 Y83.772 E.01676
G1 X206.143 Y90.805 E.31219
G1 X206.143 Y91.339 E.01676
G1 X198.577 Y83.772 E.33587
G1 X198.043 Y83.772 E.01676
G1 X206.143 Y91.873 E.35957
G1 X206.143 Y92.406 E.01673
G1 X197.509 Y83.772 E.38325
G1 X197.233 Y83.749 E.00869
G1 X197.075 Y83.697 E.00522
G1 X196.899 Y83.594 E.0064
G1 X196.761 Y83.469 E.00584
G1 X196.599 Y83.207 E.00967
G1 X196.55 Y83.039 E.00549
G1 X196.538 Y82.802 E.00745
G1 X194.508 Y80.771 E.09013
G1 X193.974 Y80.771 E.01676
G1 X206.143 Y92.94 E.54017
G1 X206.143 Y93.474 E.01676
G1 X193.44 Y80.77 E.56389
G1 X192.906 Y80.77 E.01676
G1 X206.143 Y94.008 E.5876
G1 X206.143 Y94.542 E.01676
G1 X192.372 Y80.77 E.6113
G1 X191.838 Y80.77 E.01676
G1 X206.143 Y95.076 E.63501
G1 X206.143 Y95.609 E.01673
G1 X191.304 Y80.77 E.65869
G1 X190.769 Y80.77 E.01679
G1 X206.143 Y96.143 E.68241
G1 X206.143 Y96.677 E.01676
G1 X190.235 Y80.769 E.70614
G1 X189.701 Y80.769 E.01676
G1 X206.143 Y97.211 E.72984
G1 X206.143 Y97.745 E.01676
G1 X189.167 Y80.769 E.75355
G1 X188.633 Y80.769 E.01676
G1 X206.143 Y98.279 E.77725
G1 X206.143 Y98.813 E.01676
M73 Q1 S184
G1 X188.099 Y80.769 E.80095
G1 X187.565 Y80.768 E.01676
G1 X206.143 Y99.346 E.82466
G1 X206.143 Y99.88 E.01676
G1 X187.031 Y80.768 E.84836
G1 X186.497 Y80.768 E.01676
G1 X206.143 Y100.414 E.87206
G1 X206.143 Y100.948 E.01676
G1 X185.963 Y80.768 E.89577
G1 X185.429 Y80.768 E.01676
G1 X206.143 Y101.482 E.91947
G1 X206.143 Y102.016 E.01676
G1 X184.895 Y80.768 E.94317
G1 X184.361 Y80.767 E.01676
G1 X206.143 Y102.549 E.96688
G1 X206.143 Y103.083 E.01676
G1 X183.827 Y80.767 E.99058
G1 X183.293 Y80.767 E.01676
G1 X206.143 Y103.617 E1.01429
G1 X206.143 Y104.151 E.01676
G1 X182.759 Y80.767 E1.03799
G1 X182.225 Y80.767 E.01676
G1 X206.143 Y104.685 E1.06169
G1 X206.143 Y105.219 E.01676
G1 X181.691 Y80.767 E1.0854
G1 X181.157 Y80.766 E.01676
G1 X206.143 Y105.752 E1.1091
G1 X206.143 Y106.286 E.01676
G1 X180.623 Y80.766 E1.1328
G1 X180.089 Y80.766 E.01676
G1 X206.143 Y106.82 E1.15651
G1 X206.143 Y107.354 E.01676
G1 X179.555 Y80.766 E1.18021
G1 X179.021 Y80.766 E.01676
G1 X206.143 Y107.888 E1.20392
G1 X206.143 Y108.422 E.01676
G1 X178.487 Y80.765 E1.22764
G1 X177.953 Y80.765 E.01676
G1 X206.143 Y108.955 E1.25132
G1 X206.143 Y109.489 E.01676
G1 X177.419 Y80.765 E1.27503
G1 X176.885 Y80.765 E.01676
G1 X206.143 Y110.023 E1.29873
G1 X206.143 Y110.557 E.01676
M73 P1 R183
G1 X176.351 Y80.765 E1.32243
G1 X175.817 Y80.765 E.01676
G1 X206.143 Y111.091 E1.34614
G1 X206.143 Y111.625 E.01676
G1 X175.283 Y80.764 E1.36986
G1 X174.749 Y80.764 E.01676
G1 X206.143 Y112.158 E1.39354
G1 X206.143 Y112.692 E.01676
G1 X174.215 Y80.764 E1.41725
G1 X173.681 Y80.764 E.01676
G1 X205.984 Y113.067 E1.43389
G1 X205.645 Y113.262 E.01228
G1 X173.147 Y80.764 E1.44255
G1 X172.613 Y80.764 E.01676
G1 X205.307 Y113.457 E1.45123
G1 X204.968 Y113.653 E.01229
G1 X172.079 Y80.763 E1.45993
G1 X171.545 Y80.763 E.01676
G1 X204.63 Y113.848 E1.46861
G1 X204.292 Y114.044 E.01226
M73 Q1 S183
G1 X171.011 Y80.763 E1.47731
G1 X170.477 Y80.763 E.01676
G1 X203.953 Y114.239 E1.48596
G1 X203.615 Y114.434 E.01225
G1 X169.943 Y80.763 E1.49464
G1 X169.409 Y80.762 E.01676
G1 X203.276 Y114.63 E1.50334
G1 X202.938 Y114.825 E.01225
G1 X168.705 Y80.593 E1.51954
M204 S1000
;WIPE_START
G1 F8640
G1 X171.155 Y83.043 E-.8
;WIPE_END
G1 Z.6 F720
G1 X151.419 Y63.84 F10800
G1 Z.2 F720
G1 E.8 F2100
M204 S800
G1 F1200
G1 X166.752 Y79.174 E.68064
G1 X167.418 Y80.327 E.04179
M73 P2 R183
M73 Q2 S183
G1 X167.58 Y80.526 E.00805
G1 X167.79 Y80.669 E.00797
G1 X167.978 Y80.738 E.00629
G1 X168.341 Y80.762 E.01142
G1 X202.599 Y115.021 E1.5207
G1 X202.261 Y115.216 E.01225
G1 X151.055 Y64.01 E2.27298
G1 X150.521 Y64.01 E.01676
G1 X201.922 Y115.411 E2.28163
G1 X201.584 Y115.607 E.01226
G1 X149.987 Y64.01 E2.29033
G1 X149.453 Y64.01 E.01676
G1 X201.246 Y115.802 E2.29901
G1 X200.907 Y115.998 E.01229
G1 X148.92 Y64.01 E2.30767
G1 X148.386 Y64.01 E.01676
G1 X200.569 Y116.193 E2.31634
G1 X200.23 Y116.388 E.01228
M73 P2 R182
G1 X147.852 Y64.01 E2.325
G1 X147.318 Y64.01 E.01676
G1 X199.892 Y116.584 E2.3337
G1 X199.553 Y116.779 E.01228
G1 X146.784 Y64.01 E2.34236
G1 X146.25 Y64.01 E.01676
G1 X199.215 Y116.975 E2.35106
G1 X198.876 Y117.17 E.01228
G1 X145.716 Y64.01 E2.35971
G1 X145.183 Y64.01 E.01673
G1 X198.538 Y117.365 E2.36837
G1 X198.2 Y117.561 E.01226
M73 Q2 S182
G1 X144.649 Y64.01 E2.37707
G1 X144.115 Y64.01 E.01676
G1 X197.861 Y117.756 E2.38572
G1 X197.523 Y117.952 E.01226
G1 X143.581 Y64.01 E2.39442
G1 X143.047 Y64.01 E.01676
G1 X197.184 Y118.147 E2.40308
G1 X196.846 Y118.342 E.01225
G1 X142.513 Y64.01 E2.41176
G1 X141.98 Y64.01 E.01673
