; generated by PrusaSlicer 2.7.4+win64 on 2024-07-18 at 23:06:42 UTC


;
;
; 

; external perimeters extrusion width = 0.45mm
; perimeters extrusion width = 0.45mm
; infill extrusion width = 0.45mm
; solid infill extrusion width = 0.45mm
; top infill extrusion width = 0.40mm
; first layer extrusion width = 0.42mm

M73 P0 R33
M73 C2
M73 Q0 S33
M73 D2
M201 X1000 Y1000 Z200 E5000 ; sets maximum accelerations, mm/sec^2
M203 X200 Y200 Z12 E120 ; sets maximum feedrates, mm / sec
M204 S1250 T1250 ; sets acceleration (S) and retract acceleration (R), mm/sec^2
M205 X8.00 Y8.00 Z0.40 E4.50 ; sets the jerk limits, mm/sec
M205 S0 T0 ; sets the minimum extruding and travel feed rate, mm/sec

; printing object Measuring-tool (No Mag).stl id:0 copy 0
; stop printing object Measuring-tool (No Mag).stl id:0 copy 0

;TYPE:Custom
M862.3 P "MK3S" ; printer model check
M862.1 P0.4 ; nozzle diameter check
M115 U3.13.3 ; tell printer latest fw version
G90 ; use absolute coordinates
M83 ; extruder relative mode
M104 S250 ; set extruder temp
M140 S60 ; set bed temp
M190 S60 ; wait for bed temp
M109 S250 ; wait for extruder temp
G28 W ; home all without mesh bed level
G80 X117.18 Y97.1804 W15.6387 H15.6391 ; mesh bed levelling

G1 Z0.2 F720
G1 Y-3 F1000 ; go outside print area
G92 E0
G1 X60 E9 F1000 ; intro line
G1 X100 E12.5 F1000 ; intro line

G92 E0
M221 S95

; Don't change E values below. Excessive value can damage the printer.
M907 E430 ; set extruder motor current
G21 ; set units to millimeters
G90 ; use absolute coordinates
M83 ; use relative distances for extrusion

M900 K0.05 ; Filament gcode LA 1.5
M900 K30 ; Filament gcode LA 1.0




M107
;LAYER_CHANGE
;Z:0.2
;HEIGHT:0.2
G1 E-.8 F2100
M73 P0 R32
G1 Z.6 F720
G1 X119.657 Y99.551 F10800
G1 Z.2 F720
G1 E.8 F2100
M204 S800
;TYPE:Skirt/Brim
;WIDTH:0.42
G1 F1200
G1 X120.822 Y98.614 E.04688
G1 X122.228 Y97.89 E.04959
G1 X123.634 Y97.492 E.04582
G1 X125.124 Y97.37 E.04687
G1 X126.569 Y97.532 E.04559
G1 X128.075 Y98.016 E.0496
G1 X129.381 Y98.752 E.047
G1 X130.484 Y99.694 E.04548
G1 X131.415 Y100.867 E.04695
G1 X132.084 Y102.162 E.0457
G1 X132.501 Y103.598 E.04688
G1 X132.629 Y105.175 E.04961
G1 X132.457 Y106.619 E.0456
G1 X131.997 Y108.045 E.04698
G1 X131.291 Y109.319 E.04567
G1 X130.33 Y110.461 E.0468
G1 X129.199 Y111.371 E.04552
G1 X127.871 Y112.07 E.04705
G1 X126.348 Y112.511 E.04971
G1 X124.896 Y112.63 E.04568
G1 X123.411 Y112.464 E.04685
G1 X122.023 Y112.027 E.04563
G1 X120.713 Y111.313 E.04678
G1 X119.501 Y110.292 E.04969
G1 X118.594 Y109.147 E.0458
G1 X117.908 Y107.819 E.04687
G1 X117.504 Y106.428 E.04542
G1 X117.369 Y104.933 E.04707
G1 X117.52 Y103.486 E.04562
G1 X117.959 Y102.057 E.04687
G1 X118.645 Y100.775 E.04559
G1 X119.619 Y99.598 E.0479
M204 S1000
G1 X119.619 Y99.598 F10800
G1 X119.908 Y99.836
M204 S800
G1 F1200
G1 X119.919 Y99.823 E.00053
G1 X121.031 Y98.928 E.04476
G1 X122.368 Y98.24 E.04715
G1 X123.698 Y97.864 E.04334
G1 X125.121 Y97.747 E.04477
G1 X126.488 Y97.9 E.04313
G1 X127.92 Y98.36 E.04716
G1 X129.167 Y99.062 E.04487
G1 X130.211 Y99.954 E.04305
G1 X131.099 Y101.074 E.04482
G1 X131.732 Y102.299 E.04323
G1 X132.131 Y103.671 E.0448
G1 X132.252 Y105.169 E.04712
G1 X132.089 Y106.536 E.04316
G1 X131.65 Y107.898 E.04487
G1 X130.982 Y109.103 E.0432
G1 X130.065 Y110.193 E.04466
G1 X128.995 Y111.055 E.04308
G1 X127.726 Y111.722 E.04495
G1 X126.278 Y112.14 E.04725
G1 X124.905 Y112.253 E.0432
G1 X123.486 Y112.094 E.04477
G1 X122.173 Y111.681 E.04316
G1 X120.857 Y110.954 E.04714
G1 X119.771 Y110.028 E.04475
G1 X118.912 Y108.945 E.04334
G1 X118.258 Y107.676 E.04476
G1 X117.875 Y106.361 E.04294
G1 X117.746 Y104.933 E.04496
G1 X117.889 Y103.564 E.04316
G1 X118.308 Y102.2 E.04474
G1 X118.957 Y100.986 E.04316
G1 X119.869 Y99.882 E.0449
M204 S1000
G1 X119.869 Y99.882 F10800
G1 X120.158 Y100.121
M204 S800
G1 F1200
G1 X120.18 Y100.094 E.00109
G1 X121.24 Y99.242 E.04264
G1 X122.508 Y98.59 E.04471
G1 X123.762 Y98.235 E.04086
G1 X125.118 Y98.124 E.04266
G1 X126.407 Y98.269 E.04067
G1 X127.765 Y98.704 E.04471
G1 X128.953 Y99.373 E.04275
G1 X129.937 Y100.213 E.04057
G1 X130.784 Y101.281 E.04274
G1 X131.381 Y102.437 E.04079
G1 X131.761 Y103.743 E.04265
G1 X131.875 Y105.164 E.0447
G1 X131.721 Y106.452 E.04067
G1 X131.303 Y107.751 E.04279
G1 X130.673 Y108.887 E.04073
G1 X129.799 Y109.925 E.04255
G1 X128.79 Y110.738 E.04063
G1 X127.581 Y111.374 E.04283
G1 X126.208 Y111.77 E.0448
G1 X124.913 Y111.876 E.04074
G1 X123.561 Y111.725 E.04265
G1 X122.324 Y111.335 E.04067
G1 X121.075 Y110.647 E.04471
G1 X120.04 Y109.764 E.04266
G1 X119.231 Y108.743 E.04084
G1 X118.607 Y107.534 E.04266
G1 X118.246 Y106.293 E.04052
G1 X118.123 Y104.933 E.04282
G1 X118.258 Y103.643 E.04067
G1 X118.657 Y102.342 E.04267
G1 X119.27 Y101.198 E.04069
G1 X120.12 Y100.167 E.0419
M204 S1000
;WIPE_START
G1 F8640
G1 X120.158 Y100.121 E-.01378
G1 X120.18 Y100.094 E-.00804
G1 X121.24 Y99.242 E-.31402
G1 X122.508 Y98.59 E-.32922
G1 X123.07 Y98.431 E-.13494
;WIPE_END
G1 Z.6 F720
; printing object Measuring-tool (No Mag).stl id:0 copy 0
G1 X128.307 Y103.886 F10800
G1 Z.2 F720
M73 Q0 S32
G1 E.8 F2100
M204 S800
;TYPE:Perimeter
;WIDTH:0.419999
G1 F1200
G1 X128.446 Y104.424 E.01742
G1 X128.481 Y105.058 E.01991
G1 X128.474 Y105.236 E.00559
G1 X128.386 Y105.859 E.01973
G1 X128.193 Y106.416 E.01848
G1 X127.823 Y107.057 E.02321
G1 X127.278 Y107.64 E.02502
G1 X126.86 Y107.942 E.01617
G1 X126.418 Y108.186 E.01583
G1 X125.937 Y108.352 E.01595
G1 X125.437 Y108.46 E.01604
G1 X124.823 Y108.478 E.01926
G1 X124.215 Y108.404 E.0192
G1 X123.509 Y108.159 E.02343
G1 X123.01 Y107.871 E.01806
G1 X122.444 Y107.382 E.02345
G1 X122.076 Y106.892 E.01921
G1 X121.785 Y106.352 E.01923
G1 X121.627 Y105.861 E.01617
G1 X121.531 Y105.365 E.01584
G1 X121.526 Y104.763 E.01888
G1 X121.613 Y104.141 E.01969
G1 X121.807 Y103.584 E.01849
G1 X122.177 Y102.943 E.02321
G1 X122.721 Y102.36 E.025
G1 X123.209 Y102.014 E.01876
G1 X123.775 Y101.728 E.01988
G1 X124.355 Y101.566 E.01888
G1 X125.056 Y101.506 E.02206
G1 X125.796 Y101.6 E.02339
G1 X126.491 Y101.841 E.02306
G1 X126.99 Y102.129 E.01806
G1 X127.298 Y102.396 E.01278
G1 X127.697 Y102.79 E.01758
G1 X128.024 Y103.275 E.01834
G1 X128.29 Y103.829 E.01927
M204 S1000
G1 X128.29 Y103.829 F10800
G1 X128.673 Y103.792
M204 S800
;TYPE:External perimeter
G1 F1200
G1 X128.818 Y104.357 E.01829
G1 X128.858 Y105.073 E.02248
G1 X128.851 Y105.252 E.00562
G1 X128.751 Y105.957 E.02233
G1 X128.537 Y106.574 E.02048
G1 X128.131 Y107.277 E.02545
G1 X127.903 Y107.541 E.01094
G1 X127.525 Y107.926 E.01692
G1 X127.062 Y108.26 E.0179
G1 X126.571 Y108.531 E.01758
G1 X126.024 Y108.72 E.01815
G1 X125.484 Y108.834 E.0173
G1 X124.815 Y108.855 E.02099
G1 X124.121 Y108.771 E.02192
G1 X123.351 Y108.503 E.02556
G1 X122.79 Y108.179 E.02031
G1 X122.366 Y107.813 E.01756
G1 X122.012 Y107.451 E.01588
G1 X121.693 Y106.987 E.01765
G1 X121.437 Y106.498 E.01731
G1 X121.262 Y105.955 E.01789
G1 X121.156 Y105.404 E.01759
G1 X121.149 Y104.748 E.02057
G1 X121.248 Y104.043 E.02232
G1 X121.462 Y103.426 E.02048
G1 X121.868 Y102.723 E.02545
G1 X122.097 Y102.459 E.01096
G1 X122.475 Y102.074 E.01692
G1 X122.939 Y101.739 E.01794
G1 X123.428 Y101.469 E.01751
G1 X123.956 Y101.286 E.01752
G1 X124.523 Y101.165 E.01818
G1 X125.076 Y101.129 E.01738
G1 X125.883 Y101.231 E.0255
G1 X126.649 Y101.497 E.02542
G1 X127.209 Y101.821 E.02029
G1 X127.633 Y102.187 E.01756
G1 X127.988 Y102.549 E.0159
G1 X128.347 Y103.08 E.0201
G1 X128.654 Y103.721 E.02228
G1 X128.658 Y103.734 E.00043
M204 S1000
;WIPE_START
G1 F8640
G1 X128.673 Y103.792 E-.01383
G1 X128.818 Y104.357 E-.13469
G1 X128.858 Y105.073 E-.16558
G1 X128.851 Y105.252 E-.04136
G1 X128.751 Y105.957 E-.16442
G1 X128.537 Y106.574 E-.15079
G1 X128.257 Y107.059 E-.12933
;WIPE_END
G1 Z.6 F720
G1 X126.472 Y102.026 F10800
G1 Z.2 F720
G1 E.8 F2100
M204 S800
;TYPE:Solid infill
;WIDTH:0.435862
G1 F1200
G1 X127.362 Y102.916 E.04112
G1 X127.545 Y103.137 E.00938
G1 X127.83 Y103.609 E.01802
G1 X127.974 Y103.95 E.01209
G1 X128.02 Y104.13 E.00607
G1 X125.877 Y101.987 E.09902
G1 X125.718 Y101.932 E.0055
M73 C1
G1 X125.201 Y101.867 E.01703
G1 X128.145 Y104.811 E.13603
G1 X128.129 Y105.351 E.01765
G1 X124.649 Y101.871 E.1608
G1 X124.422 Y101.9 E.00748
G1 X124.188 Y101.965 E.00794
G1 X128.041 Y105.819 E.17806
G1 X127.898 Y106.231 E.01425
G1 X123.769 Y102.102 E.19079
G1 X123.549 Y102.2 E.00787
M73 D1
G1 X123.403 Y102.292 E.00564
G1 X127.701 Y106.59 E.1986
G1 X127.545 Y106.86 E.01019
G1 X127.485 Y106.929 E.00299
G1 X123.066 Y102.511 E.20417
G1 X122.772 Y102.773 E.01287
G1 X127.227 Y107.227 E.20583
G1 X126.934 Y107.49 E.01286
M73 Q1 S32
G1 X122.515 Y103.071 E.20419
G1 X122.455 Y103.14 E.00299
M73 P1 R32
G1 X122.299 Y103.411 E.01022
G1 X126.596 Y107.708 E.19855
G1 X126.451 Y107.8 E.00561
G1 X126.231 Y107.898 E.00787
G1 X122.102 Y103.769 E.19079
G1 X121.958 Y104.181 E.01426
G1 X125.812 Y108.035 E.17808
G1 X125.578 Y108.1 E.00794
G1 X125.35 Y108.129 E.00751
G1 X121.87 Y104.649 E.1608
G1 X121.854 Y105.189 E.01765
G1 X124.804 Y108.138 E.13629
G1 X124.659 Y108.135 E.00474
G1 X124.299 Y108.074 E.01193
G1 X124.123 Y108.013 E.00609
G1 X121.98 Y105.87 E.09902
G1 X122.026 Y106.049 E.00604
G1 X122.17 Y106.391 E.01212
G1 X122.455 Y106.863 E.01802
G1 X122.638 Y107.084 E.00938
G1 X123.528 Y107.974 E.04112
M204 S1000
M106 S84.15
;LAYER_CHANGE
;Z:0.366197
;HEIGHT:0.166197
;BEFORE_LAYER_CHANGE
G92 E0.0
;0.366197


;WIPE_START
G1 F8640
G1 X122.638 Y107.084 E-.29063
G1 X122.455 Y106.863 E-.06625
G1 X122.17 Y106.391 E-.12731
G1 X122.026 Y106.049 E-.08568
G1 X121.98 Y105.87 E-.04267
G1 X122.554 Y106.444 E-.18746
;WIPE_END
G1 Z.366 F720
;AFTER_LAYER_CHANGE
;0.366197
; stop printing object Measuring-tool (No Mag).stl id:0 copy 0
G1 Z.766
G1 X118.325 Y108.626 F10800
G1 Z.366 F720
G1 E.8 F2100
;TYPE:Skirt/Brim
;WIDTH:0.42
G1 F2028
G1 X117.908 Y107.819 E.02412
G1 X117.504 Y106.428 E.03847
G1 X117.369 Y104.933 E.03986
G1 X117.52 Y103.486 E.03864
G1 X117.959 Y102.057 E.0397
G1 X118.645 Y100.775 E.03861
G1 X119.657 Y99.551 E.04218
G1 X120.822 Y98.614 E.0397
G1 X122.228 Y97.89 E.042
G1 X123.634 Y97.492 E.03881
G1 X125.124 Y97.37 E.0397
G1 X126.569 Y97.532 E.03861
G1 X128.075 Y98.016 E.04201
G1 X129.381 Y98.752 E.03981
G1 X130.484 Y99.694 E.03852
G1 X131.415 Y100.867 E.03977
G1 X132.084 Y102.162 E.03871
G1 X132.501 Y103.598 E.03971
G1 X132.629 Y105.175 E.04202
G1 X132.457 Y106.619 E.03862
G1 X131.997 Y108.045 E.03979
G1 X131.291 Y109.319 E.03868
G1 X130.33 Y110.461 E.03964
G1 X129.199 Y111.371 E.03855
G1 X127.871 Y112.07 E.03985
G1 X126.348 Y112.511 E.04211
G1 X124.896 Y112.63 E.03869
G1 X123.411 Y112.464 E.03968
G1 X122.023 Y112.027 E.03864
G1 X120.713 Y111.313 E.03962
G1 X119.501 Y110.292 E.04208
G1 X118.594 Y109.147 E.03879
G1 X118.353 Y108.68 E.01396
G1 X118.353 Y108.68 F10800
G1 X118.687 Y108.508
G1 F2028
G1 X118.258 Y107.676 E.02486
G1 X117.875 Y106.361 E.03637
G1 X117.746 Y104.933 E.03808
G1 X117.889 Y103.564 E.03655
G1 X118.308 Y102.2 E.03789
G1 X118.957 Y100.986 E.03656
G1 X119.919 Y99.823 E.04008
G1 X121.031 Y98.928 E.03791
G1 X122.368 Y98.24 E.03993
G1 X123.698 Y97.864 E.0367
G1 X125.121 Y97.747 E.03792
G1 X126.488 Y97.9 E.03653
G1 X127.92 Y98.36 E.03994
G1 X129.167 Y99.062 E.038
G1 X130.211 Y99.954 E.03647
G1 X131.099 Y101.074 E.03796
G1 X131.732 Y102.299 E.03662
G1 X132.131 Y103.671 E.03794
G1 X132.252 Y105.169 E.03991
G1 X132.089 Y106.536 E.03656
G1 X131.65 Y107.898 E.038
G1 X130.982 Y109.103 E.03659
G1 X130.065 Y110.193 E.03783
G1 X128.995 Y111.055 E.03649
G1 X127.726 Y111.722 E.03807
G1 X126.278 Y112.14 E.04002
G1 X124.905 Y112.253 E.03658
G1 X123.486 Y112.094 E.03792
G1 X122.173 Y111.681 E.03655
G1 X120.857 Y110.954 E.03993
G1 X119.771 Y110.028 E.0379
G1 X118.912 Y108.945 E.03671
G1 X118.714 Y108.561 E.01147
G1 X118.714 Y108.561 F10800
G1 X119.048 Y108.389
G1 F2028
G1 X118.607 Y107.534 E.02555
G1 X118.246 Y106.293 E.03432
G1 X118.123 Y104.933 E.03626
G1 X118.258 Y103.643 E.03444
G1 X118.657 Y102.342 E.03614
G1 X119.27 Y101.198 E.03447
G1 X120.18 Y100.094 E.03799
G1 X121.24 Y99.242 E.03612
G1 X122.508 Y98.59 E.03786
G1 X123.762 Y98.235 E.03461
G1 X125.118 Y98.124 E.03613
G1 X126.407 Y98.269 E.03445
G1 X127.765 Y98.704 E.03787
G1 X128.953 Y99.373 E.03621
G1 X129.937 Y100.213 E.03436
G1 X130.784 Y101.281 E.0362
G1 X131.381 Y102.437 E.03455
G1 X131.761 Y103.743 E.03612
G1 X131.875 Y105.164 E.03786
G1 X131.721 Y106.452 E.03445
G1 X131.303 Y107.751 E.03624
G1 X130.673 Y108.887 E.0345
G1 X129.799 Y109.925 E.03604
G1 X128.79 Y110.738 E.03441
G1 X127.581 Y111.374 E.03628
G1 X126.208 Y111.77 E.03795
G1 X124.913 Y111.876 E.03451
G1 X123.561 Y111.725 E.03613
G1 X122.324 Y111.335 E.03444
G1 X121.075 Y110.647 E.03787
G1 X120.04 Y109.764 E.03613
G1 X119.231 Y108.743 E.03459
G1 X119.075 Y108.442 E.009
;WIPE_START
G1 F8640
G1 X119.048 Y108.389 E-.01373
G1 X118.607 Y107.534 E-.22214
G1 X118.246 Y106.293 E-.29843
G1 X118.142 Y105.147 E-.2657
;WIPE_END
G1 Z.766 F720
; printing object Measuring-tool (No Mag).stl id:0 copy 0
G1 X128.606 Y103.784 F10800
G1 Z.366 F720
G1 E.8 F2100
M204 S800
;TYPE:Perimeter
;WIDTH:0.449999
G1 F1500
G1 X128.765 Y104.336 E.01645
G1 X128.794 Y104.714 E.01085
G1 X128.822 Y105.079 E.01048
G1 X128.741 Y105.789 E.02046
G1 X128.493 Y106.553 E.023
G1 X128.142 Y107.177 E.0205
G1 X127.659 Y107.747 E.02139
G1 X127.099 Y108.195 E.02053
G1 X126.436 Y108.543 E.02144
G1 X125.751 Y108.749 E.02048
G1 X124.953 Y108.823 E.02294
G1 X124.212 Y108.741 E.02134
G1 X123.529 Y108.529 E.02047
G1 X122.825 Y108.144 E.02297
G1 X122.277 Y107.684 E.02048
G1 X121.808 Y107.105 E.02133
G1 X121.439 Y106.393 E.02296
G1 X121.242 Y105.705 E.02049
G1 X121.177 Y104.963 E.02132
G1 X121.269 Y104.167 E.02294
G1 X121.489 Y103.486 E.02049
G1 X121.851 Y102.832 E.0214
G1 X122.31 Y102.283 E.02049
G1 X122.936 Y101.782 E.02295
G1 X123.599 Y101.443 E.02132
G1 X124.287 Y101.244 E.0205
G1 X125.087 Y101.178 E.02298
G1 X125.797 Y101.261 E.02047
G1 X126.507 Y101.487 E.02133
G1 X127.207 Y101.878 E.02295
G1 X127.75 Y102.344 E.02049
G1 X128.214 Y102.93 E.0214
G1 X128.543 Y103.565 E.02047
G1 X128.59 Y103.726 E.0048
M204 S1000
G1 X128.59 Y103.726 F10800
G1 X129.004 Y103.669
M204 S800
;TYPE:External perimeter
G1 F1313.363
G1 X129.174 Y104.262 E.01766
G1 X129.207 Y104.682 E.01206
G1 X129.238 Y105.086 E.0116
G1 X129.147 Y105.878 E.02282
G1 F1314.386
G1 X128.875 Y106.72 E.02533
G1 F1313.329
G1 X128.484 Y107.414 E.0228
G1 X127.949 Y108.046 E.02371
G1 F1312.801
G1 X127.327 Y108.544 E.02281
G1 X126.594 Y108.928 E.02369
G1 X125.831 Y109.157 E.02281
G1 F1313.179
G1 X124.949 Y109.239 E.02536
G1 F1312.947
G1 X124.127 Y109.149 E.02367
G1 X123.367 Y108.912 E.02279
G1 F1314.072
G1 X122.59 Y108.488 E.02534
G1 F1313.591
G1 X121.98 Y107.975 E.02282
G1 X121.46 Y107.333 E.02365
G1 X121.052 Y106.547 E.02535
G1 F1312.89
G1 X120.833 Y105.781 E.02281
G1 X120.761 Y104.958 E.02365
G1 F1313.05
G1 X120.862 Y104.078 E.02536
G1 F1312.84
G1 X121.107 Y103.32 E.02281
G1 X121.508 Y102.596 E.02369
G1 X122.019 Y101.985 E.0228
G1 F1313.676
G1 X122.71 Y101.432 E.02534
G1 X123.446 Y101.056 E.02366
G1 X124.211 Y100.834 E.0228
G1 F1314.276
G1 X125.094 Y100.761 E.02537
G1 F1313.066
G1 X125.885 Y100.854 E.0228
G1 X126.672 Y101.105 E.02365
G1 X127.445 Y101.537 E.02535
G1 F1312.774
G1 X128.05 Y102.055 E.0228
G1 X128.564 Y102.704 E.0237
G1 X128.93 Y103.411 E.02279
G1 X128.988 Y103.612 E.00599
M204 S1000
;WIPE_START
G1 F8640
G1 X129.004 Y103.669 E-.01367
G1 X129.174 Y104.262 E-.14244
G1 X129.207 Y104.682 E-.09728
G1 X129.238 Y105.086 E-.09356
G1 X129.147 Y105.878 E-.18408
G1 X128.875 Y106.72 E-.20431
G1 X128.738 Y106.964 E-.06466
;WIPE_END
G1 Z.766 F720
G1 X123.059 Y101.975 F10800
G1 Z.366 F720
G1 E.8 F2100
;TYPE:Solid infill
;WIDTH:0.375666
G1 F2028
G1 X122.499 Y102.476 E.01765
G1 X122.051 Y102.966 E.0156
G1 X122.051 Y102.966 F10800
G1 X121.734 Y103.839
G1 F2028
G1 X121.693 Y103.85 E.001
G1 X121.674 Y103.779 E.00173
G1 X121.745 Y103.798 E.00173
;WIDTH:0.412833
G1 X121.822 Y103.657 E.00419
;WIDTH:0.449999
G1 X121.899 Y103.516 E.0046
G1 X123.504 Y101.91 E.065
G1 X123.665 Y101.829 E.00516
;WIDTH:0.412833
G1 X123.825 Y101.747 E.00469
;WIDTH:0.375666
