; generated by PrusaSlicer 2.8.0+win64 on 2024-07-19 at 10:44:34 UTC


;
;
; 

; external perimeters extrusion width = 0.45mm
; perimeters extrusion width = 0.45mm
; infill extrusion width = 0.45mm
; solid infill extrusion width = 0.45mm
; top infill extrusion width = 0.40mm
; support material extrusion width = 0.35mm
; first layer extrusion width = 0.42mm

; external perimeters extrusion width = 0.45mm
; perimeters extrusion width = 0.45mm
; infill extrusion width = 0.45mm
; solid infill extrusion width = 0.45mm
; top infill extrusion width = 0.40mm
; support material extrusion width = 0.35mm
; first layer extrusion width = 0.42mm

M73 P0 R33
M73 C8
M73 Q0 S34
M73 D8
M201 X1000 Y1000 Z200 E5000 ; sets maximum accelerations, mm/sec^2
M203 X200 Y200 Z12 E120 ; sets maximum feedrates, mm / sec
M204 S1250 T1250 ; sets acceleration (S) and retract acceleration (R), mm/sec^2
M205 X8.00 Y8.00 Z0.40 E4.50 ; sets the jerk limits, mm/sec
M205 S0 T0 ; sets the minimum extruding and travel feed rate, mm/sec

; printing object Token (Magnet).stl id:0 copy 0
; stop printing object Token (Magnet).stl id:0 copy 0
; printing object Destination (Magnet).stl id:1 copy 0
; stop printing object Destination (Magnet).stl id:1 copy 0
; printing object Destination (Magnet).stl id:1 copy 1
; stop printing object Destination (Magnet).stl id:1 copy 1
; printing object Destination (Magnet).stl id:1 copy 2
; stop printing object Destination (Magnet).stl id:1 copy 2

;TYPE:Custom
M862.3 P "MK3S" ; printer model check
M862.1 P0.4 ; nozzle diameter check
M115 U3.14.0 ; tell printer latest fw version
G90 ; use absolute coordinates
M83 ; extruder relative mode
M104 S220 ; set extruder temp
M140 S60 ; set bed temp
M190 S60 ; wait for bed temp
M109 S220 ; wait for extruder temp
G28 W ; home all without mesh bed level
G80 X98.9446 Y78.9513 W52.1163 H52.1277 ; mesh bed levelling

G1 Z0.2 F720
G1 Y-3 F1000 ; go outside print area
G92 E0
G1 X60 E9 F1000 ; intro line
G1 X100 E12.5 F1000 ; intro line
M73 Q0 S33

G92 E0
M221 S95

; Don't change E values below. Excessive value can damage the printer.
M907 E430 ; set extruder motor current
G21 ; set units to millimeters
G90 ; use absolute coordinates
M83 ; use relative distances for extrusion

M900 K0.05 ; Filament gcode LA 1.5
M900 K30 ; Filament gcode LA 1.0




M107
;LAYER_CHANGE
;Z:0.2
;HEIGHT:0.2
G1 E-.8 F2100
G1 Z.6 F720
G1 X104.852 Y85.44 F10800
G1 Z.2 F720
G1 E.8 F2100
M204 S800
;TYPE:Skirt/Brim
;WIDTH:0.42
G1 F1200
G1 X105.777 Y84.559 E.04005
G1 X106.828 Y83.824 E.04021
G1 X107.975 Y83.255 E.04015
G1 X109.198 Y82.863 E.04027
G1 X130.896 Y79.171 E.6901
G1 X146.377 Y79.14 E.4854
G1 X147.924 Y79.781 E.0525
G1 X150.231 Y82.088 E.1023
G1 X150.872 Y83.635 E.0525
G1 X150.872 Y126.395 E1.34071
G1 X150.231 Y127.942 E.0525
G1 X147.924 Y130.249 E.1023
G1 X146.377 Y130.89 E.0525
G1 X103.629 Y130.89 E1.34033
G1 X102.081 Y130.249 E.05253
G1 X99.774 Y127.942 E.1023
G1 X99.133 Y126.395 E.0525
G1 X99.133 Y111.28 E.47392
G1 X102.844 Y89.339 E.69772
G1 X103.138 Y88.31 E.03355
G1 X103.629 Y87.189 E.03837
G1 X104.186 Y86.276 E.03353
G1 X104.814 Y85.487 E.03162
M204 S1000
;WIPE_START
G1 F8640
G1 X104.852 Y85.44 E-.01396
G1 X105.777 Y84.559 E-.29496
G1 X106.828 Y83.824 E-.29613
G1 X107.585 Y83.449 E-.19495
;WIPE_END
G1 Z.6 F720
; printing object Token (Magnet).stl id:0 copy 0
G1 X107.67 Y95.478 F10800
G1 Z.2 F720
G1 E.8 F2100
M204 S800
;TYPE:Perimeter
;WIDTH:0.419999
G1 F1200
G1 X107.264 Y95.112 E.01714
G1 X106.889 Y94.701 E.01744
G1 X106.557 Y94.254 E.01746
G1 X106.272 Y93.776 E.01745
G1 X106.036 Y93.272 E.01745
G1 X105.851 Y92.746 E.01748
G1 X105.72 Y92.205 E.01745
G1 X105.644 Y91.654 E.01744
G1 X105.623 Y91.108 E.01713
G1 X105.723 Y90.119 E.03117
G1 X105.851 Y89.588 E.01713
G1 X106.036 Y89.063 E.01745
G1 X106.272 Y88.559 E.01745
G1 X106.557 Y88.081 E.01745
G1 X106.889 Y87.633 E.01748
G1 X107.264 Y87.222 E.01744
G1 X107.678 Y86.85 E.01745
G1 X108.127 Y86.521 E.01745
G1 X108.607 Y86.238 E.01747
G1 X109.112 Y86.005 E.01744
G1 X109.639 Y85.824 E.01747
G1 X110.18 Y85.696 E.01743
G1 X110.732 Y85.623 E.01746
G1 X111.277 Y85.606 E.0171
G1 X112.267 Y85.712 E.03122
G1 X112.797 Y85.844 E.01713
G1 X113.321 Y86.032 E.01746
G1 X113.824 Y86.271 E.01746
G1 X114.3 Y86.559 E.01744
G1 X114.745 Y86.894 E.01746
G1 X115.154 Y87.271 E.01744
G1 X115.517 Y87.68 E.01715
G1 X115.893 Y88.244 E.02125
G1 X116.206 Y88.792 E.01979
G1 X116.409 Y89.279 E.01654
G1 X116.569 Y89.802 E.01715
G1 X116.678 Y90.343 E.0173
G1 X116.733 Y90.894 E.01736
G1 X116.733 Y91.44 E.01712
G1 X116.719 Y91.723 E.00888
G1 X116.635 Y92.274 E.01748
G1 X116.498 Y92.813 E.01744
G1 X116.306 Y93.336 E.01747
G1 X116.064 Y93.837 E.01745
G1 X115.773 Y94.311 E.01744
G1 X115.435 Y94.754 E.01747
G1 X115.063 Y95.154 E.01713
G1 X114.291 Y95.78 E.03116
G1 X113.824 Y96.063 E.01712
G1 X113.321 Y96.303 E.01747
G1 X112.797 Y96.49 E.01744
G1 X112.257 Y96.625 E.01745
G1 X111.706 Y96.705 E.01746
G1 X111.16 Y96.729 E.01714
G1 X110.17 Y96.636 E.03118
G1 X109.639 Y96.51 E.01711
G1 X109.112 Y96.329 E.01747
G1 X108.607 Y96.096 E.01744
G1 X108.127 Y95.814 E.01746
G1 X107.718 Y95.514 E.0159
M204 S1000
G1 X107.718 Y95.514 F10800
G1 X107.436 Y95.774
M204 S800
;TYPE:External perimeter
G1 F1200
G1 X106.998 Y95.38 E.01847
G1 X106.597 Y94.941 E.01864
G1 X106.243 Y94.463 E.01865
G1 X105.938 Y93.953 E.01863
G1 X105.686 Y93.414 E.01866
G1 X105.489 Y92.854 E.01861
G1 X105.349 Y92.276 E.01865
G1 X105.267 Y91.687 E.01865
G1 X105.245 Y91.096 E.01854
G1 X105.35 Y90.055 E.03281
G1 X105.489 Y89.481 E.01852
G1 X105.686 Y88.92 E.01864
G1 X105.938 Y88.382 E.01863
G1 X106.243 Y87.871 E.01866
G1 X106.597 Y87.394 E.01862
G1 X106.998 Y86.954 E.01867
G1 X107.44 Y86.557 E.01863
G1 X107.919 Y86.205 E.01864
G1 X108.432 Y85.904 E.01865
G1 X108.972 Y85.655 E.01864
G1 X109.534 Y85.461 E.01864
G1 X110.112 Y85.325 E.01862
G1 X110.702 Y85.247 E.01866
G1 X111.291 Y85.229 E.01848
G1 X112.333 Y85.34 E.03286
G1 X112.906 Y85.483 E.01852
G1 X113.466 Y85.683 E.01864
G1 X114.003 Y85.939 E.01865
G1 X114.511 Y86.247 E.01863
G1 X114.987 Y86.604 E.01866
G1 X115.424 Y87.007 E.01864
G1 X115.816 Y87.449 E.01852
G1 X116.207 Y88.035 E.02209
G1 X116.546 Y88.627 E.02139
G1 X116.763 Y89.149 E.01772
G1 X116.935 Y89.708 E.01834
G1 X117.051 Y90.286 E.01848
G1 X117.11 Y90.875 E.01856
G1 X117.11 Y91.459 E.01831
G1 X117.094 Y91.761 E.00948
M73 Q1 S33
G1 X117.005 Y92.349 E.01865
G1 X116.858 Y92.925 E.01864
G1 X116.654 Y93.483 E.01863
G1 X116.395 Y94.018 E.01864
G1 X116.084 Y94.525 E.01865
G1 X115.724 Y94.998 E.01864
M73 P1 R33
G1 X115.321 Y95.43 E.01852
G1 X114.508 Y96.09 E.03283
G1 X114.003 Y96.396 E.01851
G1 X113.466 Y96.651 E.01864
G1 X112.906 Y96.852 E.01866
G1 X112.329 Y96.995 E.01864
G1 X111.741 Y97.081 E.01863
G1 X111.151 Y97.107 E.01852
G1 X110.109 Y97.008 E.03282
G1 X109.534 Y96.873 E.01852
G1 X108.972 Y96.679 E.01864
G1 X108.432 Y96.431 E.01863
G1 X107.919 Y96.129 E.01866
G1 X107.484 Y95.81 E.01691
M204 S1000
;WIPE_START
G1 F8640
G1 X107.436 Y95.774 E-.01385
G1 X106.998 Y95.38 E-.13603
G1 X106.597 Y94.941 E-.13729
G1 X106.243 Y94.463 E-.13734
G1 X105.938 Y93.953 E-.13721
G1 X105.686 Y93.414 E-.13739
G1 X105.541 Y93.001 E-.10089
;WIPE_END
G1 Z.6 F720
G1 X113.93 Y86.534 F10800
G1 Z.2 F720
G1 E.8 F2100
M204 S800
;TYPE:Solid infill
;WIDTH:0.429421
G1 F1200
G1 X114.962 Y87.566 E.0469
G1 X115.247 Y87.887 E.0138
G1 X115.773 Y88.676 E.03047
G1 X116.001 Y89.151 E.01693
G1 X113.199 Y86.349 E.12735
G1 X112.698 Y86.169 E.01711
G1 X112.397 Y86.094 E.00997
G1 X116.258 Y89.955 E.17548
G1 X116.302 Y90.128 E.00574
G1 X116.377 Y90.621 E.01603
G1 X111.755 Y85.999 E.21007
G1 X111.159 Y85.95 E.01922
G1 X116.405 Y91.196 E.23843
G1 X116.377 Y91.714 E.01667
G1 X110.641 Y85.978 E.2607
G1 X110.165 Y86.049 E.01547
G1 X116.305 Y92.189 E.27906
G1 X116.195 Y92.625 E.01445
G1 X109.724 Y86.154 E.2941
G1 X109.317 Y86.294 E.01383
G1 X116.056 Y93.033 E.30628
G1 X115.891 Y93.415 E.01337
G1 X108.937 Y86.46 E.31608
G1 X108.579 Y86.649 E.01301
G1 X115.704 Y93.774 E.32383
G1 X115.496 Y94.113 E.01278
G1 X108.241 Y86.858 E.32974
G1 X107.926 Y87.089 E.01255
G1 X115.261 Y94.424 E.33337
G1 X115.007 Y94.716 E.01244
G1 X107.635 Y87.345 E.33503
G1 X107.362 Y87.618 E.01241
G1 X114.73 Y94.986 E.33487
G1 X114.429 Y95.231 E.01247
G1 X107.107 Y87.91 E.33276
G1 X106.874 Y88.223 E.01254
G1 X114.127 Y95.476 E.32965
G1 X113.791 Y95.687 E.01275
G1 X106.665 Y88.561 E.32387
G1 X106.477 Y88.92 E.01302
G1 X113.432 Y95.874 E.31608
G1 X113.05 Y96.039 E.01337
G1 X106.312 Y89.301 E.30624
G1 X106.171 Y89.707 E.01381
G1 X112.643 Y96.179 E.29415
G1 X112.206 Y96.288 E.01447
G1 X106.065 Y90.147 E.27911
G1 X106.011 Y90.64 E.01594
G1 X111.729 Y96.358 E.25988
G1 X111.211 Y96.387 E.01667
M73 C7
G1 X105.964 Y91.139 E.2385
G1 X105.995 Y91.717 E.0186
G1 X110.614 Y96.336 E.20993
G1 X110.225 Y96.3 E.01255
G1 X109.971 Y96.24 E.00839
G1 X106.112 Y92.38 E.17541
G1 X106.177 Y92.65 E.00893
G1 X106.37 Y93.186 E.01831
G1 X109.163 Y95.979 E.12694
G1 X108.764 Y95.795 E.01412
G1 X108.314 Y95.53 E.01678
G1 X107.892 Y95.221 E.01681
G1 X107.565 Y94.927 E.01413
G1 X106.552 Y93.914 E.04604
M204 S1000
;WIPE_START
G1 F8640
G1 X107.565 Y94.927 E-.33079
G1 X107.892 Y95.221 E-.10154
G1 X108.314 Y95.53 E-.12077
G1 X108.764 Y95.795 E-.12058
G1 X109.163 Y95.979 E-.10145
G1 X109.087 Y95.903 E-.02487
;WIPE_END
G1 Z.6 F720
; stop printing object Token (Magnet).stl id:0 copy 0
; printing object Destination (Magnet).stl id:1 copy 0
G1 X146.377 Y83.635 F10800
G1 Z.2 F720
G1 E.8 F2100
M204 S800
;TYPE:Support material
;WIDTH:0.42
G1 F1200
G1 X148.684 Y83.635 E.07233
G1 X148.684 Y98.751 E.47395
G1 X146.377 Y98.751 E.07233
G1 X146.377 Y101.058 E.07233
G1 X131.261 Y101.058 E.47395
G1 X131.261 Y98.751 E.07233
M73 D7
G1 X128.954 Y98.751 E.07233
G1 X128.954 Y83.635 E.47395
G1 X131.261 Y83.635 E.07233
G1 X131.261 Y81.328 E.07233
G1 X146.377 Y81.328 E.47395
G1 X146.377 Y83.579 E.07058
M204 S1000
G1 X146.377 Y83.579 F10800
G1 X138.776 Y85.316
M204 S800
G1 F1200
G1 X139.895 Y85.415 E.03522
G1 X140.969 Y85.723 E.03503
G1 X141.966 Y86.229 E.03506
G1 X142.958 Y87.021 E.0398
G1 X143.673 Y87.88 E.03504
G1 X144.215 Y88.864 E.03522
G1 X144.558 Y89.927 E.03502
G1 X144.694 Y91.037 E.03506
G1 X144.618 Y92.151 E.03501
G1 X144.277 Y93.374 E.03981
G1 X143.762 Y94.373 E.03524
G1 X143.07 Y95.251 E.03505
G1 X142.225 Y95.983 E.03505
G1 X141.117 Y96.603 E.03981
G1 X140.046 Y96.941 E.03521
G1 X138.935 Y97.069 E.03507
G1 X137.677 Y96.958 E.0396
G1 X136.6 Y96.636 E.03525
G1 X135.605 Y96.114 E.03523
G1 X134.732 Y95.417 E.03503
G1 X134.006 Y94.567 E.03505
G1 X133.455 Y93.595 E.03503
G1 X133.064 Y92.387 E.03981
G1 X132.942 Y91.276 E.03504
G1 X133.032 Y90.163 E.03501
G1 X133.334 Y89.08 E.03525
G1 X133.916 Y87.951 E.03983
G1 X134.618 Y87.082 E.03503
G1 X135.472 Y86.361 E.03504
G1 X136.453 Y85.813 E.03523
G1 X137.514 Y85.462 E.03504
G1 X138.719 Y85.317 E.03805
M204 S1000
;WIPE_START
G1 F8640
G1 X137.514 Y85.462 E-.28025
G1 X136.453 Y85.813 E-.25805
G1 X135.472 Y86.361 E-.25946
G1 X135.465 Y86.367 E-.00224
;WIPE_END
G1 Z.6 F720
G1 X148.037 Y98.581 F10800
M73 Q2 S33
G1 Z.2 F720
M73 P2 R33
G1 E.8 F2100
M204 S800
G1 F1200
G1 X148.037 Y83.975 E.45796
G1 X147.618 Y83.975 E.01314
G1 X147.618 Y98.411 E.45263
G1 X147.199 Y98.411 E.01314
G1 X147.199 Y83.975 E.45263
G1 X146.78 Y83.975 E.01314
G1 X146.78 Y98.411 E.45263
G1 X146.361 Y98.411 E.01314
G1 X146.361 Y83.975 E.45263
G1 X146.037 Y83.975 E.01016
G1 X146.037 Y81.668 E.07233
G1 X145.942 Y81.668 E.00298
G1 X145.942 Y100.718 E.5973
G1 X145.523 Y100.718 E.01314
M73 P2 R32
G1 X145.523 Y81.668 E.5973
G1 X145.104 Y81.668 E.01314
G1 X145.104 Y100.718 E.5973
G1 X144.685 Y100.718 E.01314
G1 X144.685 Y93.251 E.23412
G1 X144.266 Y94.189 E.03221
G1 X144.266 Y100.718 E.20471
G1 X143.847 Y100.718 E.01314
G1 X143.847 Y94.849 E.18402
G1 X143.428 Y95.365 E.02084
G1 X143.428 Y100.718 E.16784
G1 X143.009 Y100.718 E.01314
G1 X143.009 Y95.785 E.15467
G1 X142.59 Y96.135 E.01712
G1 X142.59 Y100.718 E.1437
G1 X142.171 Y100.718 E.01314
G1 X142.171 Y96.428 E.13451
G1 X141.752 Y96.674 E.01523
G1 X141.752 Y100.718 E.1268
G1 X141.333 Y100.718 E.01314
G1 X141.333 Y96.878 E.1204
G1 X140.914 Y97.046 E.01415
G1 X140.914 Y100.718 E.11513
G1 X140.495 Y100.718 E.01314
G1 X140.495 Y97.179 E.11096
G1 X140.076 Y97.281 E.01352
G1 X140.076 Y100.718 E.10776
G1 X139.657 Y100.718 E.01314
G1 X139.657 Y97.353 E.10551
G1 X139.238 Y97.395 E.0132
G1 X139.238 Y100.718 E.10419
G1 X138.819 Y100.718 E.01314
G1 X138.819 Y97.41 E.10372
G1 X138.4 Y97.395 E.01315
G1 X138.4 Y100.718 E.10419
G1 X137.981 Y100.718 E.01314
G1 X137.981 Y97.353 E.10551
G1 X137.562 Y97.281 E.01333
G1 X137.562 Y100.718 E.10776
G1 X137.143 Y100.718 E.01314
G1 X137.143 Y97.18 E.11093
G1 X136.724 Y97.046 E.01379
G1 X136.724 Y100.718 E.11513
G1 X136.305 Y100.718 E.01314
G1 X136.305 Y96.879 E.12037
G1 X135.886 Y96.674 E.01463
G1 X135.886 Y100.718 E.1268
G1 X135.467 Y100.718 E.01314
G1 X135.467 Y96.429 E.13448
G1 X135.048 Y96.135 E.01605
G1 X135.048 Y100.718 E.1437
G1 X134.629 Y100.718 E.01314
G1 X134.629 Y95.786 E.15464
G1 X134.21 Y95.365 E.01862
G1 X134.21 Y100.718 E.16784
G1 X133.791 Y100.718 E.01314
G1 X133.791 Y94.849 E.18402
G1 X133.372 Y94.191 E.02446
G1 X133.372 Y100.718 E.20465
G1 X132.953 Y100.718 E.01314
G1 X132.953 Y93.253 E.23406
G1 X132.672 Y92.125 E.03645
G1 X132.602 Y91.114 E.03178
G1 X132.698 Y90.105 E.03178
G1 X132.953 Y89.133 E.03151
G1 X132.953 Y81.668 E.23406
G1 X133.372 Y81.668 E.01314
G1 X133.372 Y88.195 E.20465
G1 X133.791 Y87.537 E.02446
G1 X133.791 Y81.668 E.18402
G1 X134.21 Y81.668 E.01314
G1 X134.21 Y87.021 E.16784
G1 X134.629 Y86.6 E.01862
G1 X134.629 Y81.668 E.15464
G1 X135.048 Y81.668 E.01314
G1 X135.048 Y86.251 E.1437
G1 X135.467 Y85.957 E.01605
G1 X135.467 Y81.668 E.13448
G1 X135.886 Y81.668 E.01314
G1 X135.886 Y85.712 E.1268
G1 X136.305 Y85.507 E.01463
G1 X136.305 Y81.668 E.12037
G1 X136.724 Y81.668 E.01314
G1 X136.724 Y85.34 E.11513
G1 X137.143 Y85.207 E.01378
G1 X137.143 Y81.668 E.11096
G1 X137.562 Y81.668 E.01314
G1 X137.562 Y85.105 E.10776
G1 X137.981 Y85.033 E.01333
G1 X137.981 Y81.668 E.10551
G1 X138.4 Y81.668 E.01314
G1 X138.4 Y84.991 E.10419
G1 X138.819 Y84.977 E.01314
G1 X138.819 Y81.668 E.10375
G1 X139.238 Y81.668 E.01314
G1 X139.238 Y84.991 E.10419
G1 X139.657 Y85.033 E.0132
G1 X139.657 Y81.668 E.10551
G1 X140.076 Y81.668 E.01314
G1 X140.076 Y85.105 E.10776
G1 X140.495 Y85.207 E.01352
G1 X140.495 Y81.668 E.11096
G1 X140.914 Y81.668 E.01314
G1 X140.914 Y85.34 E.11513
G1 X141.333 Y85.508 E.01415
G1 X141.333 Y81.668 E.1204
G1 X141.752 Y81.668 E.01314
M73 P3 R32
M73 Q3 S33
G1 X141.752 Y85.712 E.1268
G1 X142.171 Y85.958 E.01523
M73 Q3 S32
G1 X142.171 Y81.668 E.13451
G1 X142.59 Y81.668 E.01314
G1 X142.59 Y86.251 E.1437
G1 X143.009 Y86.601 E.01712
G1 X143.009 Y81.668 E.15467
G1 X143.428 Y81.668 E.01314
G1 X143.428 Y87.021 E.16784
G1 X143.847 Y87.537 E.02084
G1 X143.847 Y81.668 E.18402
G1 X144.266 Y81.668 E.01314
G1 X144.266 Y88.197 E.20471
G1 X144.685 Y89.135 E.03221
G1 X144.685 Y81.498 E.23945
M204 S1000
;WIPE_START
G1 F8640
G1 X144.685 Y84.963 E-.8
;WIPE_END
G1 Z.6 F720
G1 X132.534 Y100.888 F10800
G1 Z.2 F720
G1 E.8 F2100
M204 S800
G1 F1200
G1 X132.534 Y81.668 E.60263
G1 X132.115 Y81.668 E.01314
G1 X132.115 Y100.718 E.5973
G1 X131.696 Y100.718 E.01314
G1 X131.696 Y81.668 E.5973
G1 X131.601 Y81.668 E.00298
G1 X131.601 Y83.975 E.07233
G1 X131.277 Y83.975 E.01016
G1 X131.277 Y98.411 E.45263
G1 X130.859 Y98.411 E.01311
G1 X130.859 Y83.975 E.45263
G1 X130.44 Y83.975 E.01314
G1 X130.44 Y98.411 E.45263
G1 X130.021 Y98.411 E.01314
G1 X130.021 Y83.975 E.45263
G1 X129.602 Y83.975 E.01314
G1 X129.602 Y98.581 E.45796
M204 S1000
;WIPE_START
G1 F8640
G1 X129.602 Y95.116 E-.8
;WIPE_END
G1 Z.6 F720
G1 X142.868 Y93.363 F10800
G1 Z.2 F720
G1 E.8 F2100
M204 S800
;TYPE:Perimeter
;WIDTH:0.419999
G1 F1200
G1 X142.78 Y93.537 E.00611
G1 X142.494 Y93.964 E.01611
G1 X141.978 Y94.529 E.02399
G1 X141.565 Y94.887 E.01714
G1 X141.136 Y95.17 E.01611
G1 X140.513 Y95.479 E.0218
G1 X139.66 Y95.723 E.02782
G1 X139.028 Y95.779 E.01989
G1 X138.295 Y95.772 E.02298
G1 X137.768 Y95.667 E.01685
